<?xml version="1.0" encoding="UTF-8"?>
<map version="1.10" tiledversion="1.11.2" orientation="orthogonal" renderorder="right-down" width="480" height="10" tilewidth="32" tileheight="32" infinite="0" nextlayerid="3" nextobjectid="2073">
 <tileset firstgid="1" name="bone_valley" tilewidth="32" tileheight="32" tilecount="256" columns="16">
  <image source="../sandbox/KevsPixels/#tiles/#ocean/ocean_tiles_tiled.png" width="512" height="512"/>
 </tileset>
 <tileset firstgid="257" source="../../../../../../../../../Downloads/ocean.tsx"/>
 <layer id="1" name="tilemap" width="480" height="10">
  <data>
   <tile gid="1"/>
   <tile gid="1"/>
   <tile gid="1"/>
   <tile gid="369"/>
   <tile gid="1"/>
   <tile gid="1"/>
   <tile gid="1"/>
   <tile gid="1"/>
   <tile gid="1"/>
   <tile gid="1"/>
   <tile gid="1"/>
   <tile gid="1"/>
   <tile gid="1"/>
   <tile gid="1"/>
   <tile gid="1"/>
   <tile gid="1"/>
   <tile gid="1"/>
   <tile gid="1"/>
   <tile gid="1"/>
   <tile gid="1"/>
   <tile gid="1"/>
   <tile gid="1"/>
   <tile gid="1"/>
   <tile gid="1"/>
   <tile gid="1"/>
   <tile gid="1"/>
   <tile gid="1"/>
   <tile gid="1"/>
   <tile gid="1"/>
   <tile gid="1"/>
   <tile gid="1"/>
   <tile gid="1"/>
   <tile gid="1"/>
   <tile gid="1"/>
   <tile gid="1"/>
   <tile gid="1"/>
   <tile gid="1"/>
   <tile gid="1"/>
   <tile gid="1"/>
   <tile gid="1"/>
   <tile gid="1"/>
   <tile gid="1"/>
   <tile gid="1"/>
   <tile gid="1"/>
   <tile gid="1"/>
   <tile gid="1"/>
   <tile gid="1"/>
   <tile gid="1"/>
   <tile gid="1"/>
   <tile gid="1"/>
   <tile gid="1"/>
   <tile gid="1"/>
   <tile gid="1"/>
   <tile gid="1"/>
   <tile gid="1"/>
   <tile gid="1"/>
   <tile gid="1"/>
   <tile gid="1"/>
   <tile gid="1"/>
   <tile gid="1"/>
   <tile gid="1"/>
   <tile gid="1"/>
   <tile gid="1"/>
   <tile gid="1"/>
   <tile gid="1"/>
   <tile gid="1"/>
   <tile gid="1"/>
   <tile gid="1"/>
   <tile gid="1"/>
   <tile gid="1"/>
   <tile gid="1"/>
   <tile gid="1"/>
   <tile gid="1"/>
   <tile gid="1"/>
   <tile gid="1"/>
   <tile gid="1"/>
   <tile gid="80"/>
   <tile gid="1"/>
   <tile gid="17"/>
   <tile gid="18"/>
   <tile gid="19"/>
   <tile gid="20"/>
   <tile gid="21"/>
   <tile gid="22"/>
   <tile gid="23"/>
   <tile gid="24"/>
   <tile gid="25"/>
   <tile gid="26"/>
   <tile gid="27"/>
   <tile gid="28"/>
   <tile gid="29"/>
   <tile gid="30"/>
   <tile gid="31"/>
   <tile gid="32"/>
   <tile gid="1"/>
   <tile gid="97"/>
   <tile gid="98"/>
   <tile gid="99"/>
   <tile gid="100"/>
   <tile gid="101"/>
   <tile gid="102"/>
   <tile gid="103"/>
   <tile gid="104"/>
   <tile gid="105"/>
   <tile gid="106"/>
   <tile gid="107"/>
   <tile gid="108"/>
   <tile gid="109"/>
   <tile gid="110"/>
   <tile gid="111"/>
   <tile gid="112"/>
   <tile gid="1"/>
   <tile gid="1"/>
   <tile gid="1"/>
   <tile gid="1"/>
   <tile gid="1"/>
   <tile gid="1"/>
   <tile gid="1"/>
   <tile gid="1"/>
   <tile gid="1"/>
   <tile gid="1"/>
   <tile gid="1"/>
   <tile gid="1"/>
   <tile gid="1"/>
   <tile gid="1"/>
   <tile gid="1"/>
   <tile gid="1"/>
   <tile gid="1"/>
   <tile gid="1"/>
   <tile gid="1"/>
   <tile gid="1"/>
   <tile gid="1"/>
   <tile gid="1"/>
   <tile gid="1"/>
   <tile gid="1"/>
   <tile gid="1"/>
   <tile gid="1"/>
   <tile gid="1"/>
   <tile gid="1"/>
   <tile gid="1"/>
   <tile gid="1"/>
   <tile gid="1"/>
   <tile gid="1"/>
   <tile gid="1"/>
   <tile gid="1"/>
   <tile gid="1"/>
   <tile gid="1"/>
   <tile gid="1"/>
   <tile gid="1"/>
   <tile gid="1"/>
   <tile gid="1"/>
   <tile gid="1"/>
   <tile gid="1"/>
   <tile gid="1"/>
   <tile gid="1"/>
   <tile gid="1"/>
   <tile gid="1"/>
   <tile gid="1"/>
   <tile gid="1"/>
   <tile gid="1"/>
   <tile gid="1"/>
   <tile gid="1"/>
   <tile gid="1"/>
   <tile gid="1"/>
   <tile gid="1"/>
   <tile gid="1"/>
   <tile gid="1"/>
   <tile gid="1"/>
   <tile gid="1"/>
   <tile gid="1"/>
   <tile gid="1"/>
   <tile gid="1"/>
   <tile gid="1"/>
   <tile gid="1"/>
   <tile gid="1"/>
   <tile gid="1"/>
   <tile gid="1"/>
   <tile gid="1"/>
   <tile gid="1"/>
   <tile gid="1"/>
   <tile gid="1"/>
   <tile gid="1"/>
   <tile gid="1"/>
   <tile gid="1"/>
   <tile gid="1"/>
   <tile gid="1"/>
   <tile gid="1"/>
   <tile gid="1"/>
   <tile gid="1"/>
   <tile gid="1"/>
   <tile gid="1"/>
   <tile gid="1"/>
   <tile gid="1"/>
   <tile gid="1"/>
   <tile gid="1"/>
   <tile gid="1"/>
   <tile gid="1"/>
   <tile gid="1"/>
   <tile gid="1"/>
   <tile gid="1"/>
   <tile gid="1"/>
   <tile gid="1"/>
   <tile gid="1"/>
   <tile gid="1"/>
   <tile gid="1"/>
   <tile gid="1"/>
   <tile gid="1"/>
   <tile gid="1"/>
   <tile gid="1"/>
   <tile gid="1"/>
   <tile gid="1"/>
   <tile gid="1"/>
   <tile gid="1"/>
   <tile gid="1"/>
   <tile gid="1"/>
   <tile gid="1"/>
   <tile gid="1"/>
   <tile gid="1"/>
   <tile gid="1"/>
   <tile gid="1"/>
   <tile gid="1"/>
   <tile gid="1"/>
   <tile gid="1"/>
   <tile gid="1"/>
   <tile gid="1"/>
   <tile gid="1"/>
   <tile gid="1"/>
   <tile gid="1"/>
   <tile gid="1"/>
   <tile gid="1"/>
   <tile gid="1"/>
   <tile gid="1"/>
   <tile gid="1"/>
   <tile gid="1"/>
   <tile gid="1"/>
   <tile gid="1"/>
   <tile gid="1"/>
   <tile gid="1"/>
   <tile gid="1"/>
   <tile gid="1"/>
   <tile gid="1"/>
   <tile gid="1"/>
   <tile gid="1"/>
   <tile gid="1"/>
   <tile gid="1"/>
   <tile gid="1"/>
   <tile gid="1"/>
   <tile gid="1"/>
   <tile gid="1"/>
   <tile gid="1"/>
   <tile gid="1"/>
   <tile gid="1"/>
   <tile gid="1"/>
   <tile gid="1"/>
   <tile gid="1"/>
   <tile gid="1"/>
   <tile gid="1"/>
   <tile gid="1"/>
   <tile gid="1"/>
   <tile gid="1"/>
   <tile gid="1"/>
   <tile gid="1"/>
   <tile gid="1"/>
   <tile gid="1"/>
   <tile gid="1"/>
   <tile gid="1"/>
   <tile gid="1"/>
   <tile gid="1"/>
   <tile gid="1"/>
   <tile gid="1"/>
   <tile gid="1"/>
   <tile gid="1"/>
   <tile gid="1"/>
   <tile gid="1"/>
   <tile gid="1"/>
   <tile gid="1"/>
   <tile gid="1"/>
   <tile gid="1"/>
   <tile gid="1"/>
   <tile gid="1"/>
   <tile gid="1"/>
   <tile gid="1"/>
   <tile gid="1"/>
   <tile gid="1"/>
   <tile gid="1"/>
   <tile gid="1"/>
   <tile gid="1"/>
   <tile gid="1"/>
   <tile gid="1"/>
   <tile gid="1"/>
   <tile gid="1"/>
   <tile gid="1"/>
   <tile gid="1"/>
   <tile gid="1"/>
   <tile gid="1"/>
   <tile gid="1"/>
   <tile gid="1"/>
   <tile gid="1"/>
   <tile gid="1"/>
   <tile gid="1"/>
   <tile gid="1"/>
   <tile gid="1"/>
   <tile gid="1"/>
   <tile gid="1"/>
   <tile gid="1"/>
   <tile gid="1"/>
   <tile gid="1"/>
   <tile gid="1"/>
   <tile gid="1"/>
   <tile gid="1"/>
   <tile gid="1"/>
   <tile gid="1"/>
   <tile gid="1"/>
   <tile gid="1"/>
   <tile gid="1"/>
   <tile gid="1"/>
   <tile gid="1"/>
   <tile gid="1"/>
   <tile gid="1"/>
   <tile gid="1"/>
   <tile gid="1"/>
   <tile gid="1"/>
   <tile gid="1"/>
   <tile gid="1"/>
   <tile gid="1"/>
   <tile gid="1"/>
   <tile gid="1"/>
   <tile gid="1"/>
   <tile gid="1"/>
   <tile gid="1"/>
   <tile gid="1"/>
   <tile gid="1"/>
   <tile gid="1"/>
   <tile gid="1"/>
   <tile gid="1"/>
   <tile gid="1"/>
   <tile gid="1"/>
   <tile gid="1"/>
   <tile gid="1"/>
   <tile gid="1"/>
   <tile gid="1"/>
   <tile gid="1"/>
   <tile gid="1"/>
   <tile gid="1"/>
   <tile gid="1"/>
   <tile gid="1"/>
   <tile gid="1"/>
   <tile gid="1"/>
   <tile gid="1"/>
   <tile gid="1"/>
   <tile gid="1"/>
   <tile gid="1"/>
   <tile gid="1"/>
   <tile gid="1"/>
   <tile gid="1"/>
   <tile gid="1"/>
   <tile gid="1"/>
   <tile gid="1"/>
   <tile gid="1"/>
   <tile gid="1"/>
   <tile gid="1"/>
   <tile gid="1"/>
   <tile gid="1"/>
   <tile gid="1"/>
   <tile gid="1"/>
   <tile gid="1"/>
   <tile gid="1"/>
   <tile gid="1"/>
   <tile gid="1"/>
   <tile gid="1"/>
   <tile gid="1"/>
   <tile gid="1"/>
   <tile gid="1"/>
   <tile gid="1"/>
   <tile gid="1"/>
   <tile gid="1"/>
   <tile gid="1"/>
   <tile gid="1"/>
   <tile gid="1"/>
   <tile gid="1"/>
   <tile gid="1"/>
   <tile gid="1"/>
   <tile gid="1"/>
   <tile gid="1"/>
   <tile gid="1"/>
   <tile gid="1"/>
   <tile gid="1"/>
   <tile gid="1"/>
   <tile gid="1"/>
   <tile gid="1"/>
   <tile gid="1"/>
   <tile gid="1"/>
   <tile gid="1"/>
   <tile gid="1"/>
   <tile gid="1"/>
   <tile gid="1"/>
   <tile gid="1"/>
   <tile gid="1"/>
   <tile gid="1"/>
   <tile gid="1"/>
   <tile gid="1"/>
   <tile gid="1"/>
   <tile gid="1"/>
   <tile gid="1"/>
   <tile gid="1"/>
   <tile gid="1"/>
   <tile gid="1"/>
   <tile gid="1"/>
   <tile gid="1"/>
   <tile gid="1"/>
   <tile gid="1"/>
   <tile gid="1"/>
   <tile gid="1"/>
   <tile gid="1"/>
   <tile gid="1"/>
   <tile gid="1"/>
   <tile gid="1"/>
   <tile gid="1"/>
   <tile gid="1"/>
   <tile gid="1"/>
   <tile gid="1"/>
   <tile gid="1"/>
   <tile gid="1"/>
   <tile gid="1"/>
   <tile gid="1"/>
   <tile gid="1"/>
   <tile gid="1"/>
   <tile gid="1"/>
   <tile gid="1"/>
   <tile gid="1"/>
   <tile gid="1"/>
   <tile gid="1"/>
   <tile gid="1"/>
   <tile gid="1"/>
   <tile gid="1"/>
   <tile gid="1"/>
   <tile gid="1"/>
   <tile gid="1"/>
   <tile gid="1"/>
   <tile gid="1"/>
   <tile gid="1"/>
   <tile gid="1"/>
   <tile gid="1"/>
   <tile gid="1"/>
   <tile gid="1"/>
   <tile gid="1"/>
   <tile gid="1"/>
   <tile gid="1"/>
   <tile gid="1"/>
   <tile gid="1"/>
   <tile gid="1"/>
   <tile gid="1"/>
   <tile gid="1"/>
   <tile gid="1"/>
   <tile gid="1"/>
   <tile gid="1"/>
   <tile gid="1"/>
   <tile gid="1"/>
   <tile gid="1"/>
   <tile gid="1"/>
   <tile gid="1"/>
   <tile gid="1"/>
   <tile gid="1"/>
   <tile gid="1"/>
   <tile gid="1"/>
   <tile gid="1"/>
   <tile gid="1"/>
   <tile gid="1"/>
   <tile gid="1"/>
   <tile gid="1"/>
   <tile gid="1"/>
   <tile gid="1"/>
   <tile gid="1"/>
   <tile gid="1"/>
   <tile gid="1"/>
   <tile gid="1"/>
   <tile gid="1"/>
   <tile gid="1"/>
   <tile gid="1"/>
   <tile gid="1"/>
   <tile gid="1"/>
   <tile gid="1"/>
   <tile gid="1"/>
   <tile gid="1"/>
   <tile gid="1"/>
   <tile gid="35"/>
   <tile gid="36"/>
   <tile gid="37"/>
   <tile gid="38"/>
   <tile gid="39"/>
   <tile gid="40"/>
   <tile gid="41"/>
   <tile gid="42"/>
   <tile gid="43"/>
   <tile gid="44"/>
   <tile gid="45"/>
   <tile gid="1"/>
   <tile gid="1"/>
   <tile gid="35"/>
   <tile gid="36"/>
   <tile gid="37"/>
   <tile gid="38"/>
   <tile gid="39"/>
   <tile gid="40"/>
   <tile gid="41"/>
   <tile gid="42"/>
   <tile gid="43"/>
   <tile gid="44"/>
   <tile gid="45"/>
   <tile gid="1"/>
   <tile gid="35"/>
   <tile gid="36"/>
   <tile gid="37"/>
   <tile gid="38"/>
   <tile gid="39"/>
   <tile gid="40"/>
   <tile gid="41"/>
   <tile gid="42"/>
   <tile gid="43"/>
   <tile gid="44"/>
   <tile gid="45"/>
   <tile gid="1"/>
   <tile gid="1"/>
   <tile gid="1"/>
   <tile gid="1"/>
   <tile gid="1"/>
   <tile gid="1"/>
   <tile gid="1"/>
   <tile gid="1"/>
   <tile gid="1"/>
   <tile gid="1"/>
   <tile gid="1"/>
   <tile gid="1"/>
   <tile gid="1"/>
   <tile gid="1"/>
   <tile gid="1"/>
   <tile gid="1"/>
   <tile gid="1"/>
   <tile gid="1"/>
   <tile gid="1"/>
   <tile gid="1"/>
   <tile gid="1"/>
   <tile gid="1"/>
   <tile gid="1"/>
   <tile gid="1"/>
   <tile gid="1"/>
   <tile gid="1"/>
   <tile gid="1"/>
   <tile gid="1"/>
   <tile gid="1"/>
   <tile gid="1"/>
   <tile gid="1"/>
   <tile gid="1"/>
   <tile gid="1"/>
   <tile gid="1"/>
   <tile gid="1"/>
   <tile gid="96"/>
   <tile gid="1"/>
   <tile gid="33"/>
   <tile gid="34"/>
   <tile gid="35"/>
   <tile gid="36"/>
   <tile gid="37"/>
   <tile gid="38"/>
   <tile gid="39"/>
   <tile gid="40"/>
   <tile gid="41"/>
   <tile gid="42"/>
   <tile gid="43"/>
   <tile gid="44"/>
   <tile gid="45"/>
   <tile gid="46"/>
   <tile gid="47"/>
   <tile gid="48"/>
   <tile gid="1"/>
   <tile gid="113"/>
   <tile gid="114"/>
   <tile gid="115"/>
   <tile gid="116"/>
   <tile gid="117"/>
   <tile gid="118"/>
   <tile gid="119"/>
   <tile gid="120"/>
   <tile gid="121"/>
   <tile gid="122"/>
   <tile gid="123"/>
   <tile gid="124"/>
   <tile gid="125"/>
   <tile gid="126"/>
   <tile gid="127"/>
   <tile gid="128"/>
   <tile gid="1"/>
   <tile gid="1"/>
   <tile gid="1"/>
   <tile gid="1"/>
   <tile gid="1"/>
   <tile gid="1"/>
   <tile gid="1"/>
   <tile gid="1"/>
   <tile gid="1"/>
   <tile gid="1"/>
   <tile gid="1"/>
   <tile gid="1"/>
   <tile gid="1"/>
   <tile gid="1"/>
   <tile gid="1"/>
   <tile gid="1"/>
   <tile gid="1"/>
   <tile gid="1"/>
   <tile gid="1"/>
   <tile gid="1"/>
   <tile gid="1"/>
   <tile gid="1"/>
   <tile gid="1"/>
   <tile gid="1"/>
   <tile gid="1"/>
   <tile gid="1"/>
   <tile gid="1"/>
   <tile gid="1"/>
   <tile gid="1"/>
   <tile gid="1"/>
   <tile gid="1"/>
   <tile gid="1"/>
   <tile gid="1"/>
   <tile gid="1"/>
   <tile gid="1"/>
   <tile gid="1"/>
   <tile gid="1"/>
   <tile gid="1"/>
   <tile gid="1"/>
   <tile gid="1"/>
   <tile gid="1"/>
   <tile gid="1"/>
   <tile gid="1"/>
   <tile gid="1"/>
   <tile gid="1"/>
   <tile gid="1"/>
   <tile gid="1"/>
   <tile gid="1"/>
   <tile gid="1"/>
   <tile gid="1"/>
   <tile gid="1"/>
   <tile gid="1"/>
   <tile gid="1"/>
   <tile gid="1"/>
   <tile gid="1"/>
   <tile gid="1"/>
   <tile gid="1"/>
   <tile gid="1"/>
   <tile gid="1"/>
   <tile gid="1"/>
   <tile gid="1"/>
   <tile gid="1"/>
   <tile gid="1"/>
   <tile gid="1"/>
   <tile gid="1"/>
   <tile gid="1"/>
   <tile gid="1"/>
   <tile gid="1"/>
   <tile gid="1"/>
   <tile gid="1"/>
   <tile gid="1"/>
   <tile gid="1"/>
   <tile gid="1"/>
   <tile gid="1"/>
   <tile gid="1"/>
   <tile gid="1"/>
   <tile gid="1"/>
   <tile gid="1"/>
   <tile gid="1"/>
   <tile gid="1"/>
   <tile gid="1"/>
   <tile gid="1"/>
   <tile gid="1"/>
   <tile gid="1"/>
   <tile gid="1"/>
   <tile gid="1"/>
   <tile gid="1"/>
   <tile gid="1"/>
   <tile gid="1"/>
   <tile gid="1"/>
   <tile gid="1"/>
   <tile gid="1"/>
   <tile gid="1"/>
   <tile gid="1"/>
   <tile gid="1"/>
   <tile gid="1"/>
   <tile gid="1"/>
   <tile gid="1"/>
   <tile gid="1"/>
   <tile gid="1"/>
   <tile gid="1"/>
   <tile gid="1"/>
   <tile gid="1"/>
   <tile gid="1"/>
   <tile gid="1"/>
   <tile gid="1"/>
   <tile gid="1"/>
   <tile gid="1"/>
   <tile gid="1"/>
   <tile gid="1"/>
   <tile gid="1"/>
   <tile gid="1"/>
   <tile gid="1"/>
   <tile gid="1"/>
   <tile gid="1"/>
   <tile gid="1"/>
   <tile gid="1"/>
   <tile gid="1"/>
   <tile gid="1"/>
   <tile gid="1"/>
   <tile gid="1"/>
   <tile gid="1"/>
   <tile gid="1"/>
   <tile gid="1"/>
   <tile gid="1"/>
   <tile gid="1"/>
   <tile gid="1"/>
   <tile gid="1"/>
   <tile gid="1"/>
   <tile gid="1"/>
   <tile gid="1"/>
   <tile gid="1"/>
   <tile gid="1"/>
   <tile gid="1"/>
   <tile gid="1"/>
   <tile gid="1"/>
   <tile gid="1"/>
   <tile gid="1"/>
   <tile gid="1"/>
   <tile gid="1"/>
   <tile gid="1"/>
   <tile gid="1"/>
   <tile gid="1"/>
   <tile gid="1"/>
   <tile gid="1"/>
   <tile gid="1"/>
   <tile gid="1"/>
   <tile gid="1"/>
   <tile gid="1"/>
   <tile gid="1"/>
   <tile gid="1"/>
   <tile gid="1"/>
   <tile gid="1"/>
   <tile gid="1"/>
   <tile gid="1"/>
   <tile gid="1"/>
   <tile gid="1"/>
   <tile gid="1"/>
   <tile gid="1"/>
   <tile gid="1"/>
   <tile gid="1"/>
   <tile gid="1"/>
   <tile gid="1"/>
   <tile gid="1"/>
   <tile gid="1"/>
   <tile gid="1"/>
   <tile gid="1"/>
   <tile gid="1"/>
   <tile gid="1"/>
   <tile gid="1"/>
   <tile gid="1"/>
   <tile gid="1"/>
   <tile gid="1"/>
   <tile gid="1"/>
   <tile gid="1"/>
   <tile gid="1"/>
   <tile gid="1"/>
   <tile gid="1"/>
   <tile gid="1"/>
   <tile gid="1"/>
   <tile gid="1"/>
   <tile gid="1"/>
   <tile gid="1"/>
   <tile gid="1"/>
   <tile gid="1"/>
   <tile gid="1"/>
   <tile gid="1"/>
   <tile gid="1"/>
   <tile gid="1"/>
   <tile gid="1"/>
   <tile gid="1"/>
   <tile gid="1"/>
   <tile gid="1"/>
   <tile gid="1"/>
   <tile gid="1"/>
   <tile gid="1"/>
   <tile gid="1"/>
   <tile gid="1"/>
   <tile gid="1"/>
   <tile gid="1"/>
   <tile gid="1"/>
   <tile gid="1"/>
   <tile gid="1"/>
   <tile gid="1"/>
   <tile gid="1"/>
   <tile gid="1"/>
   <tile gid="1"/>
   <tile gid="1"/>
   <tile gid="1"/>
   <tile gid="1"/>
   <tile gid="1"/>
   <tile gid="1"/>
   <tile gid="1"/>
   <tile gid="1"/>
   <tile gid="1"/>
   <tile gid="1"/>
   <tile gid="1"/>
   <tile gid="1"/>
   <tile gid="1"/>
   <tile gid="1"/>
   <tile gid="1"/>
   <tile gid="1"/>
   <tile gid="1"/>
   <tile gid="1"/>
   <tile gid="1"/>
   <tile gid="1"/>
   <tile gid="1"/>
   <tile gid="1"/>
   <tile gid="1"/>
   <tile gid="1"/>
   <tile gid="1"/>
   <tile gid="1"/>
   <tile gid="1"/>
   <tile gid="1"/>
   <tile gid="1"/>
   <tile gid="1"/>
   <tile gid="1"/>
   <tile gid="1"/>
   <tile gid="1"/>
   <tile gid="1"/>
   <tile gid="1"/>
   <tile gid="1"/>
   <tile gid="1"/>
   <tile gid="1"/>
   <tile gid="1"/>
   <tile gid="1"/>
   <tile gid="1"/>
   <tile gid="1"/>
   <tile gid="1"/>
   <tile gid="1"/>
   <tile gid="1"/>
   <tile gid="1"/>
   <tile gid="1"/>
   <tile gid="1"/>
   <tile gid="1"/>
   <tile gid="1"/>
   <tile gid="1"/>
   <tile gid="1"/>
   <tile gid="1"/>
   <tile gid="1"/>
   <tile gid="1"/>
   <tile gid="1"/>
   <tile gid="1"/>
   <tile gid="1"/>
   <tile gid="1"/>
   <tile gid="1"/>
   <tile gid="1"/>
   <tile gid="1"/>
   <tile gid="1"/>
   <tile gid="1"/>
   <tile gid="1"/>
   <tile gid="1"/>
   <tile gid="1"/>
   <tile gid="1"/>
   <tile gid="1"/>
   <tile gid="1"/>
   <tile gid="1"/>
   <tile gid="1"/>
   <tile gid="1"/>
   <tile gid="1"/>
   <tile gid="1"/>
   <tile gid="1"/>
   <tile gid="1"/>
   <tile gid="1"/>
   <tile gid="1"/>
   <tile gid="1"/>
   <tile gid="1"/>
   <tile gid="1"/>
   <tile gid="1"/>
   <tile gid="1"/>
   <tile gid="1"/>
   <tile gid="1"/>
   <tile gid="1"/>
   <tile gid="1"/>
   <tile gid="1"/>
   <tile gid="1"/>
   <tile gid="1"/>
   <tile gid="1"/>
   <tile gid="1"/>
   <tile gid="1"/>
   <tile gid="1"/>
   <tile gid="1"/>
   <tile gid="1"/>
   <tile gid="1"/>
   <tile gid="1"/>
   <tile gid="1"/>
   <tile gid="1"/>
   <tile gid="1"/>
   <tile gid="1"/>
   <tile gid="1"/>
   <tile gid="1"/>
   <tile gid="1"/>
   <tile gid="1"/>
   <tile gid="1"/>
   <tile gid="1"/>
   <tile gid="1"/>
   <tile gid="1"/>
   <tile gid="1"/>
   <tile gid="1"/>
   <tile gid="1"/>
   <tile gid="1"/>
   <tile gid="1"/>
   <tile gid="1"/>
   <tile gid="1"/>
   <tile gid="1"/>
   <tile gid="1"/>
   <tile gid="1"/>
   <tile gid="1"/>
   <tile gid="1"/>
   <tile gid="1"/>
   <tile gid="1"/>
   <tile gid="1"/>
   <tile gid="1"/>
   <tile gid="1"/>
   <tile gid="1"/>
   <tile gid="1"/>
   <tile gid="1"/>
   <tile gid="1"/>
   <tile gid="1"/>
   <tile gid="1"/>
   <tile gid="1"/>
   <tile gid="1"/>
   <tile gid="1"/>
   <tile gid="1"/>
   <tile gid="1"/>
   <tile gid="1"/>
   <tile gid="1"/>
   <tile gid="1"/>
   <tile gid="1"/>
   <tile gid="1"/>
   <tile gid="1"/>
   <tile gid="1"/>
   <tile gid="1"/>
   <tile gid="1"/>
   <tile gid="1"/>
   <tile gid="1"/>
   <tile gid="1"/>
   <tile gid="1"/>
   <tile gid="1"/>
   <tile gid="1"/>
   <tile gid="1"/>
   <tile gid="1"/>
   <tile gid="1"/>
   <tile gid="1"/>
   <tile gid="1"/>
   <tile gid="1"/>
   <tile gid="1"/>
   <tile gid="1"/>
   <tile gid="1"/>
   <tile gid="1"/>
   <tile gid="1"/>
   <tile gid="1"/>
   <tile gid="369"/>
   <tile gid="1"/>
   <tile gid="51"/>
   <tile gid="52"/>
   <tile gid="53"/>
   <tile gid="54"/>
   <tile gid="55"/>
   <tile gid="56"/>
   <tile gid="57"/>
   <tile gid="58"/>
   <tile gid="59"/>
   <tile gid="60"/>
   <tile gid="61"/>
   <tile gid="1"/>
   <tile gid="1"/>
   <tile gid="51"/>
   <tile gid="52"/>
   <tile gid="53"/>
   <tile gid="54"/>
   <tile gid="55"/>
   <tile gid="56"/>
   <tile gid="57"/>
   <tile gid="58"/>
   <tile gid="59"/>
   <tile gid="60"/>
   <tile gid="61"/>
   <tile gid="1"/>
   <tile gid="51"/>
   <tile gid="52"/>
   <tile gid="53"/>
   <tile gid="54"/>
   <tile gid="55"/>
   <tile gid="56"/>
   <tile gid="57"/>
   <tile gid="58"/>
   <tile gid="59"/>
   <tile gid="60"/>
   <tile gid="61"/>
   <tile gid="1"/>
   <tile gid="1"/>
   <tile gid="1"/>
   <tile gid="1"/>
   <tile gid="1"/>
   <tile gid="1"/>
   <tile gid="1"/>
   <tile gid="1"/>
   <tile gid="1"/>
   <tile gid="1"/>
   <tile gid="1"/>
   <tile gid="1"/>
   <tile gid="1"/>
   <tile gid="1"/>
   <tile gid="1"/>
   <tile gid="1"/>
   <tile gid="1"/>
   <tile gid="1"/>
   <tile gid="1"/>
   <tile gid="1"/>
   <tile gid="1"/>
   <tile gid="1"/>
   <tile gid="1"/>
   <tile gid="1"/>
   <tile gid="1"/>
   <tile gid="1"/>
   <tile gid="1"/>
   <tile gid="1"/>
   <tile gid="1"/>
   <tile gid="1"/>
   <tile gid="1"/>
   <tile gid="1"/>
   <tile gid="1"/>
   <tile gid="1"/>
   <tile gid="1"/>
   <tile gid="112"/>
   <tile gid="1"/>
   <tile gid="49"/>
   <tile gid="50"/>
   <tile gid="51"/>
   <tile gid="52"/>
   <tile gid="53"/>
   <tile gid="54"/>
   <tile gid="55"/>
   <tile gid="56"/>
   <tile gid="57"/>
   <tile gid="58"/>
   <tile gid="59"/>
   <tile gid="60"/>
   <tile gid="61"/>
   <tile gid="62"/>
   <tile gid="63"/>
   <tile gid="64"/>
   <tile gid="1"/>
   <tile gid="129"/>
   <tile gid="130"/>
   <tile gid="131"/>
   <tile gid="132"/>
   <tile gid="133"/>
   <tile gid="134"/>
   <tile gid="135"/>
   <tile gid="136"/>
   <tile gid="137"/>
   <tile gid="138"/>
   <tile gid="139"/>
   <tile gid="140"/>
   <tile gid="141"/>
   <tile gid="142"/>
   <tile gid="143"/>
   <tile gid="144"/>
   <tile gid="1"/>
   <tile gid="1"/>
   <tile gid="1"/>
   <tile gid="1"/>
   <tile gid="1"/>
   <tile gid="1"/>
   <tile gid="1"/>
   <tile gid="1"/>
   <tile gid="1"/>
   <tile gid="1"/>
   <tile gid="1"/>
   <tile gid="1"/>
   <tile gid="1"/>
   <tile gid="1"/>
   <tile gid="1"/>
   <tile gid="1"/>
   <tile gid="1"/>
   <tile gid="1"/>
   <tile gid="1"/>
   <tile gid="1"/>
   <tile gid="1"/>
   <tile gid="1"/>
   <tile gid="1"/>
   <tile gid="1"/>
   <tile gid="1"/>
   <tile gid="1"/>
   <tile gid="1"/>
   <tile gid="1"/>
   <tile gid="1"/>
   <tile gid="1"/>
   <tile gid="1"/>
   <tile gid="1"/>
   <tile gid="1"/>
   <tile gid="1"/>
   <tile gid="1"/>
   <tile gid="1"/>
   <tile gid="1"/>
   <tile gid="1"/>
   <tile gid="1"/>
   <tile gid="1"/>
   <tile gid="1"/>
   <tile gid="1"/>
   <tile gid="1"/>
   <tile gid="1"/>
   <tile gid="1"/>
   <tile gid="1"/>
   <tile gid="1"/>
   <tile gid="1"/>
   <tile gid="1"/>
   <tile gid="1"/>
   <tile gid="1"/>
   <tile gid="1"/>
   <tile gid="1"/>
   <tile gid="1"/>
   <tile gid="1"/>
   <tile gid="1"/>
   <tile gid="1"/>
   <tile gid="1"/>
   <tile gid="1"/>
   <tile gid="1"/>
   <tile gid="1"/>
   <tile gid="1"/>
   <tile gid="1"/>
   <tile gid="1"/>
   <tile gid="1"/>
   <tile gid="1"/>
   <tile gid="1"/>
   <tile gid="1"/>
   <tile gid="1"/>
   <tile gid="1"/>
   <tile gid="1"/>
   <tile gid="1"/>
   <tile gid="1"/>
   <tile gid="1"/>
   <tile gid="1"/>
   <tile gid="1"/>
   <tile gid="1"/>
   <tile gid="1"/>
   <tile gid="1"/>
   <tile gid="1"/>
   <tile gid="1"/>
   <tile gid="1"/>
   <tile gid="1"/>
   <tile gid="1"/>
   <tile gid="1"/>
   <tile gid="1"/>
   <tile gid="1"/>
   <tile gid="1"/>
   <tile gid="1"/>
   <tile gid="1"/>
   <tile gid="1"/>
   <tile gid="1"/>
   <tile gid="1"/>
   <tile gid="1"/>
   <tile gid="1"/>
   <tile gid="1"/>
   <tile gid="1"/>
   <tile gid="1"/>
   <tile gid="1"/>
   <tile gid="1"/>
   <tile gid="1"/>
   <tile gid="1"/>
   <tile gid="1"/>
   <tile gid="1"/>
   <tile gid="1"/>
   <tile gid="1"/>
   <tile gid="1"/>
   <tile gid="1"/>
   <tile gid="1"/>
   <tile gid="1"/>
   <tile gid="1"/>
   <tile gid="1"/>
   <tile gid="1"/>
   <tile gid="1"/>
   <tile gid="1"/>
   <tile gid="1"/>
   <tile gid="1"/>
   <tile gid="1"/>
   <tile gid="1"/>
   <tile gid="1"/>
   <tile gid="1"/>
   <tile gid="1"/>
   <tile gid="1"/>
   <tile gid="1"/>
   <tile gid="1"/>
   <tile gid="1"/>
   <tile gid="1"/>
   <tile gid="1"/>
   <tile gid="1"/>
   <tile gid="1"/>
   <tile gid="1"/>
   <tile gid="1"/>
   <tile gid="1"/>
   <tile gid="1"/>
   <tile gid="1"/>
   <tile gid="1"/>
   <tile gid="1"/>
   <tile gid="1"/>
   <tile gid="1"/>
   <tile gid="1"/>
   <tile gid="1"/>
   <tile gid="1"/>
   <tile gid="1"/>
   <tile gid="1"/>
   <tile gid="1"/>
   <tile gid="1"/>
   <tile gid="1"/>
   <tile gid="1"/>
   <tile gid="1"/>
   <tile gid="1"/>
   <tile gid="1"/>
   <tile gid="1"/>
   <tile gid="1"/>
   <tile gid="1"/>
   <tile gid="1"/>
   <tile gid="1"/>
   <tile gid="1"/>
   <tile gid="1"/>
   <tile gid="1"/>
   <tile gid="1"/>
   <tile gid="1"/>
   <tile gid="1"/>
   <tile gid="1"/>
   <tile gid="1"/>
   <tile gid="1"/>
   <tile gid="1"/>
   <tile gid="1"/>
   <tile gid="1"/>
   <tile gid="1"/>
   <tile gid="1"/>
   <tile gid="1"/>
   <tile gid="1"/>
   <tile gid="1"/>
   <tile gid="1"/>
   <tile gid="1"/>
   <tile gid="1"/>
   <tile gid="1"/>
   <tile gid="1"/>
   <tile gid="1"/>
   <tile gid="1"/>
   <tile gid="1"/>
   <tile gid="1"/>
   <tile gid="1"/>
   <tile gid="1"/>
   <tile gid="1"/>
   <tile gid="1"/>
   <tile gid="1"/>
   <tile gid="1"/>
   <tile gid="1"/>
   <tile gid="1"/>
   <tile gid="1"/>
   <tile gid="1"/>
   <tile gid="1"/>
   <tile gid="1"/>
   <tile gid="1"/>
   <tile gid="1"/>
   <tile gid="1"/>
   <tile gid="1"/>
   <tile gid="1"/>
   <tile gid="1"/>
   <tile gid="1"/>
   <tile gid="1"/>
   <tile gid="1"/>
   <tile gid="1"/>
   <tile gid="1"/>
   <tile gid="1"/>
   <tile gid="1"/>
   <tile gid="1"/>
   <tile gid="1"/>
   <tile gid="1"/>
   <tile gid="1"/>
   <tile gid="1"/>
   <tile gid="1"/>
   <tile gid="1"/>
   <tile gid="1"/>
   <tile gid="1"/>
   <tile gid="1"/>
   <tile gid="1"/>
   <tile gid="1"/>
   <tile gid="1"/>
   <tile gid="1"/>
   <tile gid="1"/>
   <tile gid="1"/>
   <tile gid="1"/>
   <tile gid="1"/>
   <tile gid="1"/>
   <tile gid="1"/>
   <tile gid="1"/>
   <tile gid="1"/>
   <tile gid="1"/>
   <tile gid="1"/>
   <tile gid="1"/>
   <tile gid="1"/>
   <tile gid="1"/>
   <tile gid="1"/>
   <tile gid="1"/>
   <tile gid="1"/>
   <tile gid="1"/>
   <tile gid="1"/>
   <tile gid="1"/>
   <tile gid="1"/>
   <tile gid="1"/>
   <tile gid="1"/>
   <tile gid="1"/>
   <tile gid="1"/>
   <tile gid="1"/>
   <tile gid="1"/>
   <tile gid="1"/>
   <tile gid="1"/>
   <tile gid="1"/>
   <tile gid="1"/>
   <tile gid="1"/>
   <tile gid="1"/>
   <tile gid="1"/>
   <tile gid="1"/>
   <tile gid="1"/>
   <tile gid="1"/>
   <tile gid="1"/>
   <tile gid="1"/>
   <tile gid="1"/>
   <tile gid="1"/>
   <tile gid="1"/>
   <tile gid="1"/>
   <tile gid="1"/>
   <tile gid="1"/>
   <tile gid="1"/>
   <tile gid="1"/>
   <tile gid="1"/>
   <tile gid="1"/>
   <tile gid="1"/>
   <tile gid="1"/>
   <tile gid="1"/>
   <tile gid="1"/>
   <tile gid="1"/>
   <tile gid="1"/>
   <tile gid="1"/>
   <tile gid="1"/>
   <tile gid="1"/>
   <tile gid="1"/>
   <tile gid="1"/>
   <tile gid="1"/>
   <tile gid="1"/>
   <tile gid="1"/>
   <tile gid="1"/>
   <tile gid="1"/>
   <tile gid="1"/>
   <tile gid="1"/>
   <tile gid="1"/>
   <tile gid="1"/>
   <tile gid="1"/>
   <tile gid="1"/>
   <tile gid="1"/>
   <tile gid="1"/>
   <tile gid="1"/>
   <tile gid="1"/>
   <tile gid="1"/>
   <tile gid="1"/>
   <tile gid="1"/>
   <tile gid="1"/>
   <tile gid="1"/>
   <tile gid="1"/>
   <tile gid="1"/>
   <tile gid="1"/>
   <tile gid="1"/>
   <tile gid="1"/>
   <tile gid="1"/>
   <tile gid="1"/>
   <tile gid="1"/>
   <tile gid="1"/>
   <tile gid="1"/>
   <tile gid="1"/>
   <tile gid="1"/>
   <tile gid="1"/>
   <tile gid="1"/>
   <tile gid="1"/>
   <tile gid="1"/>
   <tile gid="1"/>
   <tile gid="1"/>
   <tile gid="1"/>
   <tile gid="1"/>
   <tile gid="1"/>
   <tile gid="1"/>
   <tile gid="1"/>
   <tile gid="1"/>
   <tile gid="1"/>
   <tile gid="1"/>
   <tile gid="1"/>
   <tile gid="1"/>
   <tile gid="1"/>
   <tile gid="1"/>
   <tile gid="1"/>
   <tile gid="1"/>
   <tile gid="1"/>
   <tile gid="1"/>
   <tile gid="1"/>
   <tile gid="1"/>
   <tile gid="1"/>
   <tile gid="1"/>
   <tile gid="1"/>
   <tile gid="1"/>
   <tile gid="1"/>
   <tile gid="1"/>
   <tile gid="1"/>
   <tile gid="1"/>
   <tile gid="1"/>
   <tile gid="1"/>
   <tile gid="1"/>
   <tile gid="1"/>
   <tile gid="1"/>
   <tile gid="1"/>
   <tile gid="1"/>
   <tile gid="1"/>
   <tile gid="1"/>
   <tile gid="1"/>
   <tile gid="1"/>
   <tile gid="1"/>
   <tile gid="1"/>
   <tile gid="1"/>
   <tile gid="1"/>
   <tile gid="1"/>
   <tile gid="1"/>
   <tile gid="1"/>
   <tile gid="1"/>
   <tile gid="1"/>
   <tile gid="1"/>
   <tile gid="1"/>
   <tile gid="1"/>
   <tile gid="1"/>
   <tile gid="1"/>
   <tile gid="1"/>
   <tile gid="1"/>
   <tile gid="1"/>
   <tile gid="1"/>
   <tile gid="1"/>
   <tile gid="67"/>
   <tile gid="68"/>
   <tile gid="69"/>
   <tile gid="70"/>
   <tile gid="71"/>
   <tile gid="72"/>
   <tile gid="73"/>
   <tile gid="74"/>
   <tile gid="75"/>
   <tile gid="76"/>
   <tile gid="77"/>
   <tile gid="1"/>
   <tile gid="1"/>
   <tile gid="67"/>
   <tile gid="68"/>
   <tile gid="69"/>
   <tile gid="70"/>
   <tile gid="71"/>
   <tile gid="72"/>
   <tile gid="73"/>
   <tile gid="74"/>
   <tile gid="75"/>
   <tile gid="76"/>
   <tile gid="77"/>
   <tile gid="1"/>
   <tile gid="67"/>
   <tile gid="68"/>
   <tile gid="69"/>
   <tile gid="70"/>
   <tile gid="71"/>
   <tile gid="72"/>
   <tile gid="73"/>
   <tile gid="74"/>
   <tile gid="75"/>
   <tile gid="76"/>
   <tile gid="77"/>
   <tile gid="1"/>
   <tile gid="1"/>
   <tile gid="1"/>
   <tile gid="1"/>
   <tile gid="1"/>
   <tile gid="1"/>
   <tile gid="1"/>
   <tile gid="1"/>
   <tile gid="1"/>
   <tile gid="1"/>
   <tile gid="1"/>
   <tile gid="1"/>
   <tile gid="1"/>
   <tile gid="1"/>
   <tile gid="1"/>
   <tile gid="1"/>
   <tile gid="1"/>
   <tile gid="1"/>
   <tile gid="1"/>
   <tile gid="1"/>
   <tile gid="1"/>
   <tile gid="1"/>
   <tile gid="1"/>
   <tile gid="1"/>
   <tile gid="1"/>
   <tile gid="1"/>
   <tile gid="1"/>
   <tile gid="1"/>
   <tile gid="1"/>
   <tile gid="1"/>
   <tile gid="1"/>
   <tile gid="1"/>
   <tile gid="1"/>
   <tile gid="1"/>
   <tile gid="1"/>
   <tile gid="128"/>
   <tile gid="1"/>
   <tile gid="65"/>
   <tile gid="66"/>
   <tile gid="67"/>
   <tile gid="68"/>
   <tile gid="69"/>
   <tile gid="70"/>
   <tile gid="71"/>
   <tile gid="72"/>
   <tile gid="73"/>
   <tile gid="74"/>
   <tile gid="75"/>
   <tile gid="76"/>
   <tile gid="77"/>
   <tile gid="78"/>
   <tile gid="79"/>
   <tile gid="80"/>
   <tile gid="1"/>
   <tile gid="145"/>
   <tile gid="146"/>
   <tile gid="147"/>
   <tile gid="148"/>
   <tile gid="149"/>
   <tile gid="150"/>
   <tile gid="151"/>
   <tile gid="152"/>
   <tile gid="153"/>
   <tile gid="154"/>
   <tile gid="155"/>
   <tile gid="156"/>
   <tile gid="157"/>
   <tile gid="158"/>
   <tile gid="159"/>
   <tile gid="160"/>
   <tile gid="1"/>
   <tile gid="1"/>
   <tile gid="1"/>
   <tile gid="1"/>
   <tile gid="1"/>
   <tile gid="1"/>
   <tile gid="1"/>
   <tile gid="1"/>
   <tile gid="1"/>
   <tile gid="1"/>
   <tile gid="1"/>
   <tile gid="1"/>
   <tile gid="1"/>
   <tile gid="1"/>
   <tile gid="1"/>
   <tile gid="1"/>
   <tile gid="1"/>
   <tile gid="1"/>
   <tile gid="1"/>
   <tile gid="1"/>
   <tile gid="1"/>
   <tile gid="1"/>
   <tile gid="1"/>
   <tile gid="1"/>
   <tile gid="1"/>
   <tile gid="1"/>
   <tile gid="1"/>
   <tile gid="1"/>
   <tile gid="1"/>
   <tile gid="1"/>
   <tile gid="1"/>
   <tile gid="1"/>
   <tile gid="1"/>
   <tile gid="1"/>
   <tile gid="1"/>
   <tile gid="1"/>
   <tile gid="1"/>
   <tile gid="1"/>
   <tile gid="1"/>
   <tile gid="1"/>
   <tile gid="1"/>
   <tile gid="1"/>
   <tile gid="1"/>
   <tile gid="1"/>
   <tile gid="1"/>
   <tile gid="1"/>
   <tile gid="1"/>
   <tile gid="1"/>
   <tile gid="1"/>
   <tile gid="1"/>
   <tile gid="1"/>
   <tile gid="1"/>
   <tile gid="1"/>
   <tile gid="1"/>
   <tile gid="1"/>
   <tile gid="1"/>
   <tile gid="1"/>
   <tile gid="1"/>
   <tile gid="1"/>
   <tile gid="1"/>
   <tile gid="1"/>
   <tile gid="1"/>
   <tile gid="1"/>
   <tile gid="1"/>
   <tile gid="1"/>
   <tile gid="1"/>
   <tile gid="1"/>
   <tile gid="1"/>
   <tile gid="1"/>
   <tile gid="1"/>
   <tile gid="1"/>
   <tile gid="1"/>
   <tile gid="1"/>
   <tile gid="1"/>
   <tile gid="1"/>
   <tile gid="1"/>
   <tile gid="1"/>
   <tile gid="1"/>
   <tile gid="1"/>
   <tile gid="1"/>
   <tile gid="1"/>
   <tile gid="1"/>
   <tile gid="1"/>
   <tile gid="1"/>
   <tile gid="1"/>
   <tile gid="1"/>
   <tile gid="1"/>
   <tile gid="1"/>
   <tile gid="1"/>
   <tile gid="1"/>
   <tile gid="1"/>
   <tile gid="1"/>
   <tile gid="1"/>
   <tile gid="1"/>
   <tile gid="1"/>
   <tile gid="1"/>
   <tile gid="1"/>
   <tile gid="1"/>
   <tile gid="1"/>
   <tile gid="1"/>
   <tile gid="1"/>
   <tile gid="1"/>
   <tile gid="1"/>
   <tile gid="1"/>
   <tile gid="1"/>
   <tile gid="1"/>
   <tile gid="1"/>
   <tile gid="1"/>
   <tile gid="1"/>
   <tile gid="1"/>
   <tile gid="1"/>
   <tile gid="1"/>
   <tile gid="1"/>
   <tile gid="1"/>
   <tile gid="1"/>
   <tile gid="1"/>
   <tile gid="1"/>
   <tile gid="1"/>
   <tile gid="1"/>
   <tile gid="1"/>
   <tile gid="1"/>
   <tile gid="1"/>
   <tile gid="1"/>
   <tile gid="1"/>
   <tile gid="1"/>
   <tile gid="1"/>
   <tile gid="1"/>
   <tile gid="1"/>
   <tile gid="1"/>
   <tile gid="1"/>
   <tile gid="1"/>
   <tile gid="1"/>
   <tile gid="1"/>
   <tile gid="1"/>
   <tile gid="1"/>
   <tile gid="1"/>
   <tile gid="1"/>
   <tile gid="1"/>
   <tile gid="1"/>
   <tile gid="1"/>
   <tile gid="1"/>
   <tile gid="1"/>
   <tile gid="1"/>
   <tile gid="1"/>
   <tile gid="1"/>
   <tile gid="1"/>
   <tile gid="1"/>
   <tile gid="1"/>
   <tile gid="1"/>
   <tile gid="1"/>
   <tile gid="1"/>
   <tile gid="1"/>
   <tile gid="1"/>
   <tile gid="1"/>
   <tile gid="1"/>
   <tile gid="1"/>
   <tile gid="1"/>
   <tile gid="1"/>
   <tile gid="1"/>
   <tile gid="1"/>
   <tile gid="1"/>
   <tile gid="1"/>
   <tile gid="1"/>
   <tile gid="1"/>
   <tile gid="1"/>
   <tile gid="1"/>
   <tile gid="1"/>
   <tile gid="1"/>
   <tile gid="1"/>
   <tile gid="1"/>
   <tile gid="1"/>
   <tile gid="1"/>
   <tile gid="1"/>
   <tile gid="1"/>
   <tile gid="1"/>
   <tile gid="1"/>
   <tile gid="1"/>
   <tile gid="1"/>
   <tile gid="1"/>
   <tile gid="1"/>
   <tile gid="1"/>
   <tile gid="1"/>
   <tile gid="1"/>
   <tile gid="1"/>
   <tile gid="1"/>
   <tile gid="1"/>
   <tile gid="1"/>
   <tile gid="1"/>
   <tile gid="1"/>
   <tile gid="1"/>
   <tile gid="1"/>
   <tile gid="1"/>
   <tile gid="1"/>
   <tile gid="1"/>
   <tile gid="1"/>
   <tile gid="1"/>
   <tile gid="1"/>
   <tile gid="1"/>
   <tile gid="1"/>
   <tile gid="1"/>
   <tile gid="1"/>
   <tile gid="1"/>
   <tile gid="1"/>
   <tile gid="1"/>
   <tile gid="1"/>
   <tile gid="1"/>
   <tile gid="1"/>
   <tile gid="1"/>
   <tile gid="1"/>
   <tile gid="1"/>
   <tile gid="1"/>
   <tile gid="1"/>
   <tile gid="1"/>
   <tile gid="1"/>
   <tile gid="1"/>
   <tile gid="1"/>
   <tile gid="1"/>
   <tile gid="1"/>
   <tile gid="1"/>
   <tile gid="1"/>
   <tile gid="1"/>
   <tile gid="1"/>
   <tile gid="1"/>
   <tile gid="1"/>
   <tile gid="1"/>
   <tile gid="1"/>
   <tile gid="1"/>
   <tile gid="1"/>
   <tile gid="1"/>
   <tile gid="1"/>
   <tile gid="1"/>
   <tile gid="1"/>
   <tile gid="1"/>
   <tile gid="1"/>
   <tile gid="1"/>
   <tile gid="1"/>
   <tile gid="1"/>
   <tile gid="1"/>
   <tile gid="1"/>
   <tile gid="1"/>
   <tile gid="1"/>
   <tile gid="1"/>
   <tile gid="1"/>
   <tile gid="1"/>
   <tile gid="1"/>
   <tile gid="1"/>
   <tile gid="1"/>
   <tile gid="1"/>
   <tile gid="1"/>
   <tile gid="1"/>
   <tile gid="1"/>
   <tile gid="1"/>
   <tile gid="1"/>
   <tile gid="1"/>
   <tile gid="1"/>
   <tile gid="1"/>
   <tile gid="1"/>
   <tile gid="1"/>
   <tile gid="1"/>
   <tile gid="1"/>
   <tile gid="1"/>
   <tile gid="1"/>
   <tile gid="1"/>
   <tile gid="1"/>
   <tile gid="1"/>
   <tile gid="1"/>
   <tile gid="1"/>
   <tile gid="1"/>
   <tile gid="1"/>
   <tile gid="1"/>
   <tile gid="1"/>
   <tile gid="1"/>
   <tile gid="1"/>
   <tile gid="1"/>
   <tile gid="1"/>
   <tile gid="1"/>
   <tile gid="1"/>
   <tile gid="1"/>
   <tile gid="1"/>
   <tile gid="1"/>
   <tile gid="1"/>
   <tile gid="1"/>
   <tile gid="1"/>
   <tile gid="1"/>
   <tile gid="1"/>
   <tile gid="1"/>
   <tile gid="1"/>
   <tile gid="1"/>
   <tile gid="1"/>
   <tile gid="1"/>
   <tile gid="1"/>
   <tile gid="1"/>
   <tile gid="1"/>
   <tile gid="1"/>
   <tile gid="1"/>
   <tile gid="1"/>
   <tile gid="1"/>
   <tile gid="1"/>
   <tile gid="1"/>
   <tile gid="1"/>
   <tile gid="1"/>
   <tile gid="1"/>
   <tile gid="1"/>
   <tile gid="1"/>
   <tile gid="1"/>
   <tile gid="1"/>
   <tile gid="1"/>
   <tile gid="1"/>
   <tile gid="1"/>
   <tile gid="1"/>
   <tile gid="1"/>
   <tile gid="1"/>
   <tile gid="1"/>
   <tile gid="1"/>
   <tile gid="1"/>
   <tile gid="1"/>
   <tile gid="1"/>
   <tile gid="1"/>
   <tile gid="1"/>
   <tile gid="1"/>
   <tile gid="1"/>
   <tile gid="1"/>
   <tile gid="1"/>
   <tile gid="1"/>
   <tile gid="1"/>
   <tile gid="1"/>
   <tile gid="1"/>
   <tile gid="1"/>
   <tile gid="1"/>
   <tile gid="1"/>
   <tile gid="1"/>
   <tile gid="1"/>
   <tile gid="1"/>
   <tile gid="1"/>
   <tile gid="1"/>
   <tile gid="1"/>
   <tile gid="1"/>
   <tile gid="1"/>
   <tile gid="1"/>
   <tile gid="1"/>
   <tile gid="1"/>
   <tile gid="1"/>
   <tile gid="1"/>
   <tile gid="1"/>
   <tile gid="1"/>
   <tile gid="1"/>
   <tile gid="1"/>
   <tile gid="1"/>
   <tile gid="1"/>
   <tile gid="1"/>
   <tile gid="1"/>
   <tile gid="1"/>
   <tile gid="1"/>
   <tile gid="1"/>
   <tile gid="1"/>
   <tile gid="1"/>
   <tile gid="1"/>
   <tile gid="1"/>
   <tile gid="1"/>
   <tile gid="1"/>
   <tile gid="1"/>
   <tile gid="1"/>
   <tile gid="1"/>
   <tile gid="1"/>
   <tile gid="1"/>
   <tile gid="1"/>
   <tile gid="1"/>
   <tile gid="1"/>
   <tile gid="1"/>
   <tile gid="1"/>
   <tile gid="1"/>
   <tile gid="1"/>
   <tile gid="369"/>
   <tile gid="257"/>
   <tile gid="83"/>
   <tile gid="84"/>
   <tile gid="85"/>
   <tile gid="86"/>
   <tile gid="87"/>
   <tile gid="88"/>
   <tile gid="89"/>
   <tile gid="90"/>
   <tile gid="91"/>
   <tile gid="92"/>
   <tile gid="93"/>
   <tile gid="257"/>
   <tile gid="257"/>
   <tile gid="83"/>
   <tile gid="84"/>
   <tile gid="85"/>
   <tile gid="86"/>
   <tile gid="87"/>
   <tile gid="88"/>
   <tile gid="89"/>
   <tile gid="90"/>
   <tile gid="91"/>
   <tile gid="92"/>
   <tile gid="93"/>
   <tile gid="1"/>
   <tile gid="83"/>
   <tile gid="84"/>
   <tile gid="85"/>
   <tile gid="86"/>
   <tile gid="87"/>
   <tile gid="88"/>
   <tile gid="89"/>
   <tile gid="90"/>
   <tile gid="91"/>
   <tile gid="92"/>
   <tile gid="93"/>
   <tile gid="1"/>
   <tile gid="1"/>
   <tile gid="1"/>
   <tile gid="1"/>
   <tile gid="1"/>
   <tile gid="1"/>
   <tile gid="1"/>
   <tile gid="1"/>
   <tile gid="1"/>
   <tile gid="1"/>
   <tile gid="1"/>
   <tile gid="1"/>
   <tile gid="1"/>
   <tile gid="1"/>
   <tile gid="1"/>
   <tile gid="1"/>
   <tile gid="1"/>
   <tile gid="1"/>
   <tile gid="1"/>
   <tile gid="1"/>
   <tile gid="1"/>
   <tile gid="1"/>
   <tile gid="1"/>
   <tile gid="1"/>
   <tile gid="1"/>
   <tile gid="1"/>
   <tile gid="1"/>
   <tile gid="1"/>
   <tile gid="1"/>
   <tile gid="1"/>
   <tile gid="1"/>
   <tile gid="1"/>
   <tile gid="1"/>
   <tile gid="1"/>
   <tile gid="1"/>
   <tile gid="144"/>
   <tile gid="1"/>
   <tile gid="81"/>
   <tile gid="82"/>
   <tile gid="83"/>
   <tile gid="84"/>
   <tile gid="85"/>
   <tile gid="86"/>
   <tile gid="87"/>
   <tile gid="88"/>
   <tile gid="89"/>
   <tile gid="90"/>
   <tile gid="91"/>
   <tile gid="92"/>
   <tile gid="93"/>
   <tile gid="94"/>
   <tile gid="95"/>
   <tile gid="96"/>
   <tile gid="1"/>
   <tile gid="161"/>
   <tile gid="162"/>
   <tile gid="163"/>
   <tile gid="164"/>
   <tile gid="165"/>
   <tile gid="166"/>
   <tile gid="167"/>
   <tile gid="168"/>
   <tile gid="169"/>
   <tile gid="170"/>
   <tile gid="171"/>
   <tile gid="172"/>
   <tile gid="173"/>
   <tile gid="174"/>
   <tile gid="175"/>
   <tile gid="176"/>
   <tile gid="1"/>
   <tile gid="1"/>
   <tile gid="1"/>
   <tile gid="1"/>
   <tile gid="1"/>
   <tile gid="1"/>
   <tile gid="1"/>
   <tile gid="1"/>
   <tile gid="1"/>
   <tile gid="1"/>
   <tile gid="1"/>
   <tile gid="1"/>
   <tile gid="1"/>
   <tile gid="1"/>
   <tile gid="1"/>
   <tile gid="1"/>
   <tile gid="1"/>
   <tile gid="1"/>
   <tile gid="1"/>
   <tile gid="1"/>
   <tile gid="1"/>
   <tile gid="1"/>
   <tile gid="1"/>
   <tile gid="1"/>
   <tile gid="1"/>
   <tile gid="1"/>
   <tile gid="1"/>
   <tile gid="1"/>
   <tile gid="1"/>
   <tile gid="1"/>
   <tile gid="1"/>
   <tile gid="1"/>
   <tile gid="1"/>
   <tile gid="1"/>
   <tile gid="1"/>
   <tile gid="1"/>
   <tile gid="1"/>
   <tile gid="1"/>
   <tile gid="1"/>
   <tile gid="1"/>
   <tile gid="1"/>
   <tile gid="1"/>
   <tile gid="1"/>
   <tile gid="1"/>
   <tile gid="1"/>
   <tile gid="1"/>
   <tile gid="1"/>
   <tile gid="1"/>
   <tile gid="1"/>
   <tile gid="1"/>
   <tile gid="1"/>
   <tile gid="1"/>
   <tile gid="1"/>
   <tile gid="1"/>
   <tile gid="1"/>
   <tile gid="1"/>
   <tile gid="1"/>
   <tile gid="1"/>
   <tile gid="1"/>
   <tile gid="1"/>
   <tile gid="1"/>
   <tile gid="1"/>
   <tile gid="1"/>
   <tile gid="1"/>
   <tile gid="1"/>
   <tile gid="1"/>
   <tile gid="1"/>
   <tile gid="1"/>
   <tile gid="1"/>
   <tile gid="1"/>
   <tile gid="1"/>
   <tile gid="1"/>
   <tile gid="1"/>
   <tile gid="1"/>
   <tile gid="1"/>
   <tile gid="1"/>
   <tile gid="1"/>
   <tile gid="1"/>
   <tile gid="1"/>
   <tile gid="1"/>
   <tile gid="1"/>
   <tile gid="1"/>
   <tile gid="1"/>
   <tile gid="1"/>
   <tile gid="1"/>
   <tile gid="1"/>
   <tile gid="1"/>
   <tile gid="1"/>
   <tile gid="1"/>
   <tile gid="1"/>
   <tile gid="1"/>
   <tile gid="1"/>
   <tile gid="1"/>
   <tile gid="1"/>
   <tile gid="1"/>
   <tile gid="1"/>
   <tile gid="1"/>
   <tile gid="1"/>
   <tile gid="1"/>
   <tile gid="1"/>
   <tile gid="1"/>
   <tile gid="1"/>
   <tile gid="1"/>
   <tile gid="1"/>
   <tile gid="1"/>
   <tile gid="1"/>
   <tile gid="1"/>
   <tile gid="1"/>
   <tile gid="1"/>
   <tile gid="1"/>
   <tile gid="1"/>
   <tile gid="1"/>
   <tile gid="1"/>
   <tile gid="1"/>
   <tile gid="1"/>
   <tile gid="1"/>
   <tile gid="1"/>
   <tile gid="1"/>
   <tile gid="1"/>
   <tile gid="1"/>
   <tile gid="1"/>
   <tile gid="1"/>
   <tile gid="1"/>
   <tile gid="1"/>
   <tile gid="1"/>
   <tile gid="1"/>
   <tile gid="1"/>
   <tile gid="1"/>
   <tile gid="1"/>
   <tile gid="1"/>
   <tile gid="1"/>
   <tile gid="1"/>
   <tile gid="1"/>
   <tile gid="1"/>
   <tile gid="1"/>
   <tile gid="1"/>
   <tile gid="1"/>
   <tile gid="1"/>
   <tile gid="1"/>
   <tile gid="1"/>
   <tile gid="1"/>
   <tile gid="1"/>
   <tile gid="1"/>
   <tile gid="1"/>
   <tile gid="1"/>
   <tile gid="1"/>
   <tile gid="1"/>
   <tile gid="1"/>
   <tile gid="1"/>
   <tile gid="1"/>
   <tile gid="1"/>
   <tile gid="1"/>
   <tile gid="1"/>
   <tile gid="1"/>
   <tile gid="1"/>
   <tile gid="1"/>
   <tile gid="1"/>
   <tile gid="1"/>
   <tile gid="1"/>
   <tile gid="1"/>
   <tile gid="1"/>
   <tile gid="1"/>
   <tile gid="1"/>
   <tile gid="1"/>
   <tile gid="1"/>
   <tile gid="1"/>
   <tile gid="1"/>
   <tile gid="1"/>
   <tile gid="1"/>
   <tile gid="1"/>
   <tile gid="1"/>
   <tile gid="1"/>
   <tile gid="1"/>
   <tile gid="1"/>
   <tile gid="1"/>
   <tile gid="1"/>
   <tile gid="1"/>
   <tile gid="1"/>
   <tile gid="1"/>
   <tile gid="1"/>
   <tile gid="1"/>
   <tile gid="1"/>
   <tile gid="1"/>
   <tile gid="1"/>
   <tile gid="1"/>
   <tile gid="1"/>
   <tile gid="1"/>
   <tile gid="1"/>
   <tile gid="1"/>
   <tile gid="1"/>
   <tile gid="1"/>
   <tile gid="1"/>
   <tile gid="1"/>
   <tile gid="1"/>
   <tile gid="1"/>
   <tile gid="1"/>
   <tile gid="1"/>
   <tile gid="1"/>
   <tile gid="1"/>
   <tile gid="1"/>
   <tile gid="1"/>
   <tile gid="1"/>
   <tile gid="1"/>
   <tile gid="1"/>
   <tile gid="1"/>
   <tile gid="1"/>
   <tile gid="1"/>
   <tile gid="1"/>
   <tile gid="1"/>
   <tile gid="1"/>
   <tile gid="1"/>
   <tile gid="1"/>
   <tile gid="1"/>
   <tile gid="1"/>
   <tile gid="1"/>
   <tile gid="1"/>
   <tile gid="1"/>
   <tile gid="1"/>
   <tile gid="1"/>
   <tile gid="1"/>
   <tile gid="1"/>
   <tile gid="1"/>
   <tile gid="1"/>
   <tile gid="1"/>
   <tile gid="1"/>
   <tile gid="1"/>
   <tile gid="1"/>
   <tile gid="1"/>
   <tile gid="1"/>
   <tile gid="1"/>
   <tile gid="1"/>
   <tile gid="1"/>
   <tile gid="1"/>
   <tile gid="1"/>
   <tile gid="1"/>
   <tile gid="1"/>
   <tile gid="1"/>
   <tile gid="1"/>
   <tile gid="1"/>
   <tile gid="1"/>
   <tile gid="1"/>
   <tile gid="1"/>
   <tile gid="1"/>
   <tile gid="1"/>
   <tile gid="1"/>
   <tile gid="1"/>
   <tile gid="1"/>
   <tile gid="1"/>
   <tile gid="1"/>
   <tile gid="1"/>
   <tile gid="1"/>
   <tile gid="1"/>
   <tile gid="1"/>
   <tile gid="1"/>
   <tile gid="1"/>
   <tile gid="1"/>
   <tile gid="1"/>
   <tile gid="1"/>
   <tile gid="1"/>
   <tile gid="1"/>
   <tile gid="1"/>
   <tile gid="1"/>
   <tile gid="1"/>
   <tile gid="1"/>
   <tile gid="1"/>
   <tile gid="1"/>
   <tile gid="1"/>
   <tile gid="1"/>
   <tile gid="1"/>
   <tile gid="1"/>
   <tile gid="1"/>
   <tile gid="1"/>
   <tile gid="1"/>
   <tile gid="1"/>
   <tile gid="1"/>
   <tile gid="1"/>
   <tile gid="1"/>
   <tile gid="1"/>
   <tile gid="1"/>
   <tile gid="1"/>
   <tile gid="1"/>
   <tile gid="1"/>
   <tile gid="1"/>
   <tile gid="1"/>
   <tile gid="1"/>
   <tile gid="1"/>
   <tile gid="1"/>
   <tile gid="1"/>
   <tile gid="1"/>
   <tile gid="1"/>
   <tile gid="1"/>
   <tile gid="1"/>
   <tile gid="1"/>
   <tile gid="1"/>
   <tile gid="1"/>
   <tile gid="1"/>
   <tile gid="1"/>
   <tile gid="1"/>
   <tile gid="1"/>
   <tile gid="1"/>
   <tile gid="1"/>
   <tile gid="1"/>
   <tile gid="1"/>
   <tile gid="1"/>
   <tile gid="1"/>
   <tile gid="1"/>
   <tile gid="1"/>
   <tile gid="1"/>
   <tile gid="1"/>
   <tile gid="1"/>
   <tile gid="1"/>
   <tile gid="1"/>
   <tile gid="1"/>
   <tile gid="1"/>
   <tile gid="1"/>
   <tile gid="1"/>
   <tile gid="1"/>
   <tile gid="1"/>
   <tile gid="1"/>
   <tile gid="1"/>
   <tile gid="1"/>
   <tile gid="1"/>
   <tile gid="1"/>
   <tile gid="1"/>
   <tile gid="1"/>
   <tile gid="1"/>
   <tile gid="1"/>
   <tile gid="1"/>
   <tile gid="1"/>
   <tile gid="1"/>
   <tile gid="1"/>
   <tile gid="1"/>
   <tile gid="1"/>
   <tile gid="1"/>
   <tile gid="1"/>
   <tile gid="1"/>
   <tile gid="1"/>
   <tile gid="1"/>
   <tile gid="1"/>
   <tile gid="1"/>
   <tile gid="1"/>
   <tile gid="1"/>
   <tile gid="1"/>
   <tile gid="1"/>
   <tile gid="1"/>
   <tile gid="1"/>
   <tile gid="1"/>
   <tile gid="1"/>
   <tile gid="1"/>
   <tile gid="1"/>
   <tile gid="1"/>
   <tile gid="1"/>
   <tile gid="1"/>
   <tile gid="1"/>
   <tile gid="1"/>
   <tile gid="1"/>
   <tile gid="1"/>
   <tile gid="1"/>
   <tile gid="1"/>
   <tile gid="1"/>
   <tile gid="1"/>
   <tile gid="1"/>
   <tile gid="1"/>
   <tile gid="1"/>
   <tile gid="1"/>
   <tile gid="1"/>
   <tile gid="1"/>
   <tile gid="1"/>
   <tile gid="1"/>
   <tile gid="1"/>
   <tile gid="1"/>
   <tile gid="1"/>
   <tile gid="1"/>
   <tile gid="1"/>
   <tile gid="99"/>
   <tile gid="100"/>
   <tile gid="101"/>
   <tile gid="102"/>
   <tile gid="103"/>
   <tile gid="104"/>
   <tile gid="105"/>
   <tile gid="106"/>
   <tile gid="107"/>
   <tile gid="108"/>
   <tile gid="109"/>
   <tile gid="1"/>
   <tile gid="1"/>
   <tile gid="99"/>
   <tile gid="100"/>
   <tile gid="101"/>
   <tile gid="102"/>
   <tile gid="103"/>
   <tile gid="104"/>
   <tile gid="105"/>
   <tile gid="106"/>
   <tile gid="107"/>
   <tile gid="108"/>
   <tile gid="109"/>
   <tile gid="1"/>
   <tile gid="99"/>
   <tile gid="100"/>
   <tile gid="101"/>
   <tile gid="102"/>
   <tile gid="103"/>
   <tile gid="104"/>
   <tile gid="105"/>
   <tile gid="106"/>
   <tile gid="107"/>
   <tile gid="108"/>
   <tile gid="109"/>
   <tile gid="1"/>
   <tile gid="1"/>
   <tile gid="1"/>
   <tile gid="1"/>
   <tile gid="1"/>
   <tile gid="1"/>
   <tile gid="1"/>
   <tile gid="1"/>
   <tile gid="1"/>
   <tile gid="1"/>
   <tile gid="1"/>
   <tile gid="1"/>
   <tile gid="1"/>
   <tile gid="1"/>
   <tile gid="1"/>
   <tile gid="1"/>
   <tile gid="1"/>
   <tile gid="1"/>
   <tile gid="1"/>
   <tile gid="1"/>
   <tile gid="1"/>
   <tile gid="1"/>
   <tile gid="1"/>
   <tile gid="1"/>
   <tile gid="1"/>
   <tile gid="1"/>
   <tile gid="1"/>
   <tile gid="1"/>
   <tile gid="1"/>
   <tile gid="1"/>
   <tile gid="1"/>
   <tile gid="1"/>
   <tile gid="1"/>
   <tile gid="1"/>
   <tile gid="1"/>
   <tile gid="160"/>
   <tile gid="1"/>
   <tile gid="97"/>
   <tile gid="98"/>
   <tile gid="99"/>
   <tile gid="100"/>
   <tile gid="101"/>
   <tile gid="102"/>
   <tile gid="103"/>
   <tile gid="104"/>
   <tile gid="105"/>
   <tile gid="106"/>
   <tile gid="107"/>
   <tile gid="108"/>
   <tile gid="109"/>
   <tile gid="110"/>
   <tile gid="111"/>
   <tile gid="112"/>
   <tile gid="1"/>
   <tile gid="177"/>
   <tile gid="178"/>
   <tile gid="179"/>
   <tile gid="180"/>
   <tile gid="181"/>
   <tile gid="182"/>
   <tile gid="183"/>
   <tile gid="184"/>
   <tile gid="185"/>
   <tile gid="186"/>
   <tile gid="187"/>
   <tile gid="188"/>
   <tile gid="189"/>
   <tile gid="190"/>
   <tile gid="191"/>
   <tile gid="192"/>
   <tile gid="1"/>
   <tile gid="1"/>
   <tile gid="1"/>
   <tile gid="1"/>
   <tile gid="1"/>
   <tile gid="1"/>
   <tile gid="1"/>
   <tile gid="1"/>
   <tile gid="1"/>
   <tile gid="1"/>
   <tile gid="1"/>
   <tile gid="1"/>
   <tile gid="1"/>
   <tile gid="1"/>
   <tile gid="1"/>
   <tile gid="1"/>
   <tile gid="1"/>
   <tile gid="1"/>
   <tile gid="1"/>
   <tile gid="1"/>
   <tile gid="1"/>
   <tile gid="1"/>
   <tile gid="1"/>
   <tile gid="1"/>
   <tile gid="1"/>
   <tile gid="1"/>
   <tile gid="1"/>
   <tile gid="1"/>
   <tile gid="1"/>
   <tile gid="1"/>
   <tile gid="1"/>
   <tile gid="1"/>
   <tile gid="1"/>
   <tile gid="1"/>
   <tile gid="1"/>
   <tile gid="1"/>
   <tile gid="1"/>
   <tile gid="1"/>
   <tile gid="1"/>
   <tile gid="1"/>
   <tile gid="1"/>
   <tile gid="1"/>
   <tile gid="1"/>
   <tile gid="1"/>
   <tile gid="1"/>
   <tile gid="1"/>
   <tile gid="1"/>
   <tile gid="1"/>
   <tile gid="1"/>
   <tile gid="1"/>
   <tile gid="1"/>
   <tile gid="1"/>
   <tile gid="1"/>
   <tile gid="1"/>
   <tile gid="1"/>
   <tile gid="1"/>
   <tile gid="1"/>
   <tile gid="1"/>
   <tile gid="1"/>
   <tile gid="1"/>
   <tile gid="1"/>
   <tile gid="1"/>
   <tile gid="1"/>
   <tile gid="1"/>
   <tile gid="1"/>
   <tile gid="1"/>
   <tile gid="1"/>
   <tile gid="1"/>
   <tile gid="1"/>
   <tile gid="1"/>
   <tile gid="1"/>
   <tile gid="1"/>
   <tile gid="1"/>
   <tile gid="1"/>
   <tile gid="1"/>
   <tile gid="1"/>
   <tile gid="1"/>
   <tile gid="1"/>
   <tile gid="1"/>
   <tile gid="1"/>
   <tile gid="1"/>
   <tile gid="1"/>
   <tile gid="1"/>
   <tile gid="1"/>
   <tile gid="1"/>
   <tile gid="1"/>
   <tile gid="1"/>
   <tile gid="1"/>
   <tile gid="1"/>
   <tile gid="1"/>
   <tile gid="1"/>
   <tile gid="1"/>
   <tile gid="1"/>
   <tile gid="1"/>
   <tile gid="1"/>
   <tile gid="1"/>
   <tile gid="1"/>
   <tile gid="1"/>
   <tile gid="1"/>
   <tile gid="1"/>
   <tile gid="1"/>
   <tile gid="1"/>
   <tile gid="1"/>
   <tile gid="1"/>
   <tile gid="1"/>
   <tile gid="1"/>
   <tile gid="1"/>
   <tile gid="1"/>
   <tile gid="1"/>
   <tile gid="1"/>
   <tile gid="1"/>
   <tile gid="1"/>
   <tile gid="1"/>
   <tile gid="1"/>
   <tile gid="1"/>
   <tile gid="1"/>
   <tile gid="1"/>
   <tile gid="1"/>
   <tile gid="1"/>
   <tile gid="1"/>
   <tile gid="1"/>
   <tile gid="1"/>
   <tile gid="1"/>
   <tile gid="1"/>
   <tile gid="1"/>
   <tile gid="1"/>
   <tile gid="1"/>
   <tile gid="1"/>
   <tile gid="1"/>
   <tile gid="1"/>
   <tile gid="1"/>
   <tile gid="1"/>
   <tile gid="1"/>
   <tile gid="1"/>
   <tile gid="1"/>
   <tile gid="1"/>
   <tile gid="1"/>
   <tile gid="1"/>
   <tile gid="1"/>
   <tile gid="1"/>
   <tile gid="1"/>
   <tile gid="1"/>
   <tile gid="1"/>
   <tile gid="1"/>
   <tile gid="1"/>
   <tile gid="1"/>
   <tile gid="1"/>
   <tile gid="1"/>
   <tile gid="1"/>
   <tile gid="1"/>
   <tile gid="1"/>
   <tile gid="1"/>
   <tile gid="1"/>
   <tile gid="1"/>
   <tile gid="1"/>
   <tile gid="1"/>
   <tile gid="1"/>
   <tile gid="1"/>
   <tile gid="1"/>
   <tile gid="1"/>
   <tile gid="1"/>
   <tile gid="1"/>
   <tile gid="1"/>
   <tile gid="1"/>
   <tile gid="1"/>
   <tile gid="1"/>
   <tile gid="1"/>
   <tile gid="1"/>
   <tile gid="1"/>
   <tile gid="1"/>
   <tile gid="1"/>
   <tile gid="1"/>
   <tile gid="1"/>
   <tile gid="1"/>
   <tile gid="1"/>
   <tile gid="1"/>
   <tile gid="1"/>
   <tile gid="1"/>
   <tile gid="1"/>
   <tile gid="1"/>
   <tile gid="1"/>
   <tile gid="1"/>
   <tile gid="1"/>
   <tile gid="1"/>
   <tile gid="1"/>
   <tile gid="1"/>
   <tile gid="1"/>
   <tile gid="1"/>
   <tile gid="1"/>
   <tile gid="1"/>
   <tile gid="1"/>
   <tile gid="1"/>
   <tile gid="1"/>
   <tile gid="1"/>
   <tile gid="1"/>
   <tile gid="1"/>
   <tile gid="1"/>
   <tile gid="1"/>
   <tile gid="1"/>
   <tile gid="1"/>
   <tile gid="1"/>
   <tile gid="1"/>
   <tile gid="1"/>
   <tile gid="1"/>
   <tile gid="1"/>
   <tile gid="1"/>
   <tile gid="1"/>
   <tile gid="1"/>
   <tile gid="1"/>
   <tile gid="1"/>
   <tile gid="1"/>
   <tile gid="1"/>
   <tile gid="1"/>
   <tile gid="1"/>
   <tile gid="1"/>
   <tile gid="1"/>
   <tile gid="1"/>
   <tile gid="1"/>
   <tile gid="1"/>
   <tile gid="1"/>
   <tile gid="1"/>
   <tile gid="1"/>
   <tile gid="1"/>
   <tile gid="1"/>
   <tile gid="1"/>
   <tile gid="1"/>
   <tile gid="1"/>
   <tile gid="1"/>
   <tile gid="1"/>
   <tile gid="1"/>
   <tile gid="1"/>
   <tile gid="1"/>
   <tile gid="1"/>
   <tile gid="1"/>
   <tile gid="1"/>
   <tile gid="1"/>
   <tile gid="1"/>
   <tile gid="1"/>
   <tile gid="1"/>
   <tile gid="1"/>
   <tile gid="1"/>
   <tile gid="1"/>
   <tile gid="1"/>
   <tile gid="1"/>
   <tile gid="1"/>
   <tile gid="1"/>
   <tile gid="1"/>
   <tile gid="1"/>
   <tile gid="1"/>
   <tile gid="1"/>
   <tile gid="1"/>
   <tile gid="1"/>
   <tile gid="1"/>
   <tile gid="1"/>
   <tile gid="1"/>
   <tile gid="1"/>
   <tile gid="1"/>
   <tile gid="1"/>
   <tile gid="1"/>
   <tile gid="1"/>
   <tile gid="1"/>
   <tile gid="1"/>
   <tile gid="1"/>
   <tile gid="1"/>
   <tile gid="1"/>
   <tile gid="1"/>
   <tile gid="1"/>
   <tile gid="1"/>
   <tile gid="1"/>
   <tile gid="1"/>
   <tile gid="1"/>
   <tile gid="1"/>
   <tile gid="1"/>
   <tile gid="1"/>
   <tile gid="1"/>
   <tile gid="1"/>
   <tile gid="1"/>
   <tile gid="1"/>
   <tile gid="1"/>
   <tile gid="1"/>
   <tile gid="1"/>
   <tile gid="1"/>
   <tile gid="1"/>
   <tile gid="1"/>
   <tile gid="1"/>
   <tile gid="1"/>
   <tile gid="1"/>
   <tile gid="1"/>
   <tile gid="1"/>
   <tile gid="1"/>
   <tile gid="1"/>
   <tile gid="1"/>
   <tile gid="1"/>
   <tile gid="1"/>
   <tile gid="1"/>
   <tile gid="1"/>
   <tile gid="1"/>
   <tile gid="1"/>
   <tile gid="1"/>
   <tile gid="1"/>
   <tile gid="1"/>
   <tile gid="1"/>
   <tile gid="1"/>
   <tile gid="1"/>
   <tile gid="1"/>
   <tile gid="1"/>
   <tile gid="1"/>
   <tile gid="1"/>
   <tile gid="1"/>
   <tile gid="1"/>
   <tile gid="1"/>
   <tile gid="1"/>
   <tile gid="1"/>
   <tile gid="1"/>
   <tile gid="1"/>
   <tile gid="1"/>
   <tile gid="1"/>
   <tile gid="1"/>
   <tile gid="1"/>
   <tile gid="1"/>
   <tile gid="1"/>
   <tile gid="1"/>
   <tile gid="1"/>
   <tile gid="1"/>
   <tile gid="1"/>
   <tile gid="1"/>
   <tile gid="1"/>
   <tile gid="1"/>
   <tile gid="1"/>
   <tile gid="1"/>
   <tile gid="1"/>
   <tile gid="1"/>
   <tile gid="1"/>
   <tile gid="1"/>
   <tile gid="1"/>
   <tile gid="1"/>
   <tile gid="1"/>
   <tile gid="1"/>
   <tile gid="1"/>
   <tile gid="1"/>
   <tile gid="1"/>
   <tile gid="1"/>
   <tile gid="1"/>
   <tile gid="1"/>
   <tile gid="1"/>
   <tile gid="1"/>
   <tile gid="1"/>
   <tile gid="1"/>
   <tile gid="1"/>
   <tile gid="1"/>
   <tile gid="1"/>
   <tile gid="1"/>
   <tile gid="1"/>
   <tile gid="1"/>
   <tile gid="1"/>
   <tile gid="1"/>
   <tile gid="1"/>
   <tile gid="1"/>
   <tile gid="1"/>
   <tile gid="1"/>
   <tile gid="1"/>
   <tile gid="1"/>
   <tile gid="1"/>
   <tile gid="1"/>
   <tile gid="1"/>
   <tile gid="1"/>
   <tile gid="1"/>
   <tile gid="1"/>
   <tile gid="1"/>
   <tile gid="1"/>
   <tile gid="1"/>
   <tile gid="1"/>
   <tile gid="369"/>
   <tile gid="1"/>
   <tile gid="115"/>
   <tile gid="116"/>
   <tile gid="117"/>
   <tile gid="118"/>
   <tile gid="119"/>
   <tile gid="120"/>
   <tile gid="121"/>
   <tile gid="122"/>
   <tile gid="123"/>
   <tile gid="124"/>
   <tile gid="125"/>
   <tile gid="1"/>
   <tile gid="257"/>
   <tile gid="115"/>
   <tile gid="116"/>
   <tile gid="117"/>
   <tile gid="118"/>
   <tile gid="119"/>
   <tile gid="120"/>
   <tile gid="121"/>
   <tile gid="122"/>
   <tile gid="123"/>
   <tile gid="124"/>
   <tile gid="125"/>
   <tile gid="1"/>
   <tile gid="115"/>
   <tile gid="116"/>
   <tile gid="117"/>
   <tile gid="118"/>
   <tile gid="119"/>
   <tile gid="120"/>
   <tile gid="121"/>
   <tile gid="122"/>
   <tile gid="123"/>
   <tile gid="124"/>
   <tile gid="125"/>
   <tile gid="1"/>
   <tile gid="1"/>
   <tile gid="1"/>
   <tile gid="1"/>
   <tile gid="1"/>
   <tile gid="1"/>
   <tile gid="1"/>
   <tile gid="1"/>
   <tile gid="1"/>
   <tile gid="1"/>
   <tile gid="1"/>
   <tile gid="1"/>
   <tile gid="1"/>
   <tile gid="1"/>
   <tile gid="1"/>
   <tile gid="1"/>
   <tile gid="1"/>
   <tile gid="1"/>
   <tile gid="1"/>
   <tile gid="1"/>
   <tile gid="1"/>
   <tile gid="1"/>
   <tile gid="1"/>
   <tile gid="1"/>
   <tile gid="1"/>
   <tile gid="1"/>
   <tile gid="1"/>
   <tile gid="1"/>
   <tile gid="1"/>
   <tile gid="1"/>
   <tile gid="1"/>
   <tile gid="1"/>
   <tile gid="1"/>
   <tile gid="1"/>
   <tile gid="1"/>
   <tile gid="176"/>
   <tile gid="1"/>
   <tile gid="113"/>
   <tile gid="114"/>
   <tile gid="115"/>
   <tile gid="116"/>
   <tile gid="117"/>
   <tile gid="118"/>
   <tile gid="119"/>
   <tile gid="120"/>
   <tile gid="121"/>
   <tile gid="122"/>
   <tile gid="123"/>
   <tile gid="124"/>
   <tile gid="125"/>
   <tile gid="126"/>
   <tile gid="127"/>
   <tile gid="128"/>
   <tile gid="1"/>
   <tile gid="193"/>
   <tile gid="194"/>
   <tile gid="195"/>
   <tile gid="196"/>
   <tile gid="197"/>
   <tile gid="198"/>
   <tile gid="199"/>
   <tile gid="200"/>
   <tile gid="201"/>
   <tile gid="202"/>
   <tile gid="203"/>
   <tile gid="204"/>
   <tile gid="205"/>
   <tile gid="206"/>
   <tile gid="207"/>
   <tile gid="208"/>
   <tile gid="1"/>
   <tile gid="1"/>
   <tile gid="1"/>
   <tile gid="1"/>
   <tile gid="1"/>
   <tile gid="1"/>
   <tile gid="1"/>
   <tile gid="1"/>
   <tile gid="1"/>
   <tile gid="1"/>
   <tile gid="1"/>
   <tile gid="1"/>
   <tile gid="1"/>
   <tile gid="1"/>
   <tile gid="1"/>
   <tile gid="1"/>
   <tile gid="1"/>
   <tile gid="1"/>
   <tile gid="1"/>
   <tile gid="1"/>
   <tile gid="1"/>
   <tile gid="1"/>
   <tile gid="1"/>
   <tile gid="1"/>
   <tile gid="1"/>
   <tile gid="1"/>
   <tile gid="1"/>
   <tile gid="1"/>
   <tile gid="1"/>
   <tile gid="1"/>
   <tile gid="1"/>
   <tile gid="1"/>
   <tile gid="1"/>
   <tile gid="1"/>
   <tile gid="1"/>
   <tile gid="1"/>
   <tile gid="1"/>
   <tile gid="1"/>
   <tile gid="1"/>
   <tile gid="1"/>
   <tile gid="1"/>
   <tile gid="1"/>
   <tile gid="1"/>
   <tile gid="1"/>
   <tile gid="1"/>
   <tile gid="1"/>
   <tile gid="1"/>
   <tile gid="1"/>
   <tile gid="1"/>
   <tile gid="1"/>
   <tile gid="1"/>
   <tile gid="1"/>
   <tile gid="1"/>
   <tile gid="1"/>
   <tile gid="1"/>
   <tile gid="1"/>
   <tile gid="1"/>
   <tile gid="1"/>
   <tile gid="1"/>
   <tile gid="1"/>
   <tile gid="1"/>
   <tile gid="1"/>
   <tile gid="1"/>
   <tile gid="1"/>
   <tile gid="1"/>
   <tile gid="1"/>
   <tile gid="1"/>
   <tile gid="1"/>
   <tile gid="1"/>
   <tile gid="1"/>
   <tile gid="1"/>
   <tile gid="1"/>
   <tile gid="1"/>
   <tile gid="1"/>
   <tile gid="1"/>
   <tile gid="1"/>
   <tile gid="1"/>
   <tile gid="1"/>
   <tile gid="1"/>
   <tile gid="1"/>
   <tile gid="1"/>
   <tile gid="1"/>
   <tile gid="1"/>
   <tile gid="1"/>
   <tile gid="1"/>
   <tile gid="1"/>
   <tile gid="1"/>
   <tile gid="1"/>
   <tile gid="1"/>
   <tile gid="1"/>
   <tile gid="1"/>
   <tile gid="1"/>
   <tile gid="1"/>
   <tile gid="1"/>
   <tile gid="1"/>
   <tile gid="1"/>
   <tile gid="1"/>
   <tile gid="1"/>
   <tile gid="1"/>
   <tile gid="1"/>
   <tile gid="1"/>
   <tile gid="1"/>
   <tile gid="1"/>
   <tile gid="1"/>
   <tile gid="1"/>
   <tile gid="1"/>
   <tile gid="1"/>
   <tile gid="1"/>
   <tile gid="1"/>
   <tile gid="1"/>
   <tile gid="1"/>
   <tile gid="1"/>
   <tile gid="1"/>
   <tile gid="1"/>
   <tile gid="1"/>
   <tile gid="1"/>
   <tile gid="1"/>
   <tile gid="1"/>
   <tile gid="1"/>
   <tile gid="1"/>
   <tile gid="1"/>
   <tile gid="1"/>
   <tile gid="1"/>
   <tile gid="1"/>
   <tile gid="1"/>
   <tile gid="1"/>
   <tile gid="1"/>
   <tile gid="1"/>
   <tile gid="1"/>
   <tile gid="1"/>
   <tile gid="1"/>
   <tile gid="1"/>
   <tile gid="1"/>
   <tile gid="1"/>
   <tile gid="1"/>
   <tile gid="1"/>
   <tile gid="1"/>
   <tile gid="1"/>
   <tile gid="1"/>
   <tile gid="1"/>
   <tile gid="1"/>
   <tile gid="1"/>
   <tile gid="1"/>
   <tile gid="1"/>
   <tile gid="1"/>
   <tile gid="1"/>
   <tile gid="1"/>
   <tile gid="1"/>
   <tile gid="1"/>
   <tile gid="1"/>
   <tile gid="1"/>
   <tile gid="1"/>
   <tile gid="1"/>
   <tile gid="1"/>
   <tile gid="1"/>
   <tile gid="1"/>
   <tile gid="1"/>
   <tile gid="1"/>
   <tile gid="1"/>
   <tile gid="1"/>
   <tile gid="1"/>
   <tile gid="1"/>
   <tile gid="1"/>
   <tile gid="1"/>
   <tile gid="1"/>
   <tile gid="1"/>
   <tile gid="1"/>
   <tile gid="1"/>
   <tile gid="1"/>
   <tile gid="1"/>
   <tile gid="1"/>
   <tile gid="1"/>
   <tile gid="1"/>
   <tile gid="1"/>
   <tile gid="1"/>
   <tile gid="1"/>
   <tile gid="1"/>
   <tile gid="1"/>
   <tile gid="1"/>
   <tile gid="1"/>
   <tile gid="1"/>
   <tile gid="1"/>
   <tile gid="1"/>
   <tile gid="1"/>
   <tile gid="1"/>
   <tile gid="1"/>
   <tile gid="1"/>
   <tile gid="1"/>
   <tile gid="1"/>
   <tile gid="1"/>
   <tile gid="1"/>
   <tile gid="1"/>
   <tile gid="1"/>
   <tile gid="1"/>
   <tile gid="1"/>
   <tile gid="1"/>
   <tile gid="1"/>
   <tile gid="1"/>
   <tile gid="1"/>
   <tile gid="1"/>
   <tile gid="1"/>
   <tile gid="1"/>
   <tile gid="1"/>
   <tile gid="1"/>
   <tile gid="1"/>
   <tile gid="1"/>
   <tile gid="1"/>
   <tile gid="1"/>
   <tile gid="1"/>
   <tile gid="1"/>
   <tile gid="1"/>
   <tile gid="1"/>
   <tile gid="1"/>
   <tile gid="1"/>
   <tile gid="1"/>
   <tile gid="1"/>
   <tile gid="1"/>
   <tile gid="1"/>
   <tile gid="1"/>
   <tile gid="1"/>
   <tile gid="1"/>
   <tile gid="1"/>
   <tile gid="1"/>
   <tile gid="1"/>
   <tile gid="1"/>
   <tile gid="1"/>
   <tile gid="1"/>
   <tile gid="1"/>
   <tile gid="1"/>
   <tile gid="1"/>
   <tile gid="1"/>
   <tile gid="1"/>
   <tile gid="1"/>
   <tile gid="1"/>
   <tile gid="1"/>
   <tile gid="1"/>
   <tile gid="1"/>
   <tile gid="1"/>
   <tile gid="1"/>
   <tile gid="1"/>
   <tile gid="1"/>
   <tile gid="1"/>
   <tile gid="1"/>
   <tile gid="1"/>
   <tile gid="1"/>
   <tile gid="1"/>
   <tile gid="1"/>
   <tile gid="1"/>
   <tile gid="1"/>
   <tile gid="1"/>
   <tile gid="1"/>
   <tile gid="1"/>
   <tile gid="1"/>
   <tile gid="1"/>
   <tile gid="1"/>
   <tile gid="1"/>
   <tile gid="1"/>
   <tile gid="1"/>
   <tile gid="1"/>
   <tile gid="1"/>
   <tile gid="1"/>
   <tile gid="1"/>
   <tile gid="1"/>
   <tile gid="1"/>
   <tile gid="1"/>
   <tile gid="1"/>
   <tile gid="1"/>
   <tile gid="1"/>
   <tile gid="1"/>
   <tile gid="1"/>
   <tile gid="1"/>
   <tile gid="1"/>
   <tile gid="1"/>
   <tile gid="1"/>
   <tile gid="1"/>
   <tile gid="1"/>
   <tile gid="1"/>
   <tile gid="1"/>
   <tile gid="1"/>
   <tile gid="1"/>
   <tile gid="1"/>
   <tile gid="1"/>
   <tile gid="1"/>
   <tile gid="1"/>
   <tile gid="1"/>
   <tile gid="1"/>
   <tile gid="1"/>
   <tile gid="1"/>
   <tile gid="1"/>
   <tile gid="1"/>
   <tile gid="1"/>
   <tile gid="1"/>
   <tile gid="1"/>
   <tile gid="1"/>
   <tile gid="1"/>
   <tile gid="1"/>
   <tile gid="1"/>
   <tile gid="1"/>
   <tile gid="1"/>
   <tile gid="1"/>
   <tile gid="1"/>
   <tile gid="1"/>
   <tile gid="1"/>
   <tile gid="1"/>
   <tile gid="1"/>
   <tile gid="1"/>
   <tile gid="1"/>
   <tile gid="1"/>
   <tile gid="1"/>
   <tile gid="1"/>
   <tile gid="1"/>
   <tile gid="1"/>
   <tile gid="1"/>
   <tile gid="1"/>
   <tile gid="1"/>
   <tile gid="1"/>
   <tile gid="1"/>
   <tile gid="1"/>
   <tile gid="1"/>
   <tile gid="1"/>
   <tile gid="1"/>
   <tile gid="1"/>
   <tile gid="1"/>
   <tile gid="1"/>
   <tile gid="1"/>
   <tile gid="1"/>
   <tile gid="1"/>
   <tile gid="1"/>
   <tile gid="1"/>
   <tile gid="1"/>
   <tile gid="1"/>
   <tile gid="1"/>
   <tile gid="1"/>
   <tile gid="1"/>
   <tile gid="1"/>
   <tile gid="1"/>
   <tile gid="1"/>
   <tile gid="1"/>
   <tile gid="1"/>
   <tile gid="1"/>
   <tile gid="1"/>
   <tile gid="1"/>
   <tile gid="1"/>
   <tile gid="1"/>
   <tile gid="1"/>
   <tile gid="1"/>
   <tile gid="1"/>
   <tile gid="1"/>
   <tile gid="1"/>
   <tile gid="1"/>
   <tile gid="1"/>
   <tile gid="1"/>
   <tile gid="1"/>
   <tile gid="1"/>
   <tile gid="1"/>
   <tile gid="1"/>
   <tile gid="1"/>
   <tile gid="1"/>
   <tile gid="1"/>
   <tile gid="1"/>
   <tile gid="1"/>
   <tile gid="1"/>
   <tile gid="1"/>
   <tile gid="1"/>
   <tile gid="1"/>
   <tile gid="1"/>
   <tile gid="1"/>
   <tile gid="1"/>
   <tile gid="1"/>
   <tile gid="257"/>
   <tile gid="257"/>
   <tile gid="257"/>
   <tile gid="257"/>
   <tile gid="257"/>
   <tile gid="131"/>
   <tile gid="132"/>
   <tile gid="133"/>
   <tile gid="134"/>
   <tile gid="135"/>
   <tile gid="136"/>
   <tile gid="137"/>
   <tile gid="138"/>
   <tile gid="139"/>
   <tile gid="140"/>
   <tile gid="141"/>
   <tile gid="1"/>
   <tile gid="1"/>
   <tile gid="131"/>
   <tile gid="132"/>
   <tile gid="133"/>
   <tile gid="134"/>
   <tile gid="135"/>
   <tile gid="136"/>
   <tile gid="137"/>
   <tile gid="138"/>
   <tile gid="139"/>
   <tile gid="140"/>
   <tile gid="141"/>
   <tile gid="1"/>
   <tile gid="131"/>
   <tile gid="132"/>
   <tile gid="133"/>
   <tile gid="134"/>
   <tile gid="135"/>
   <tile gid="136"/>
   <tile gid="137"/>
   <tile gid="138"/>
   <tile gid="139"/>
   <tile gid="140"/>
   <tile gid="141"/>
   <tile gid="1"/>
   <tile gid="1"/>
   <tile gid="1"/>
   <tile gid="1"/>
   <tile gid="1"/>
   <tile gid="1"/>
   <tile gid="1"/>
   <tile gid="1"/>
   <tile gid="1"/>
   <tile gid="1"/>
   <tile gid="1"/>
   <tile gid="1"/>
   <tile gid="1"/>
   <tile gid="1"/>
   <tile gid="1"/>
   <tile gid="1"/>
   <tile gid="1"/>
   <tile gid="1"/>
   <tile gid="1"/>
   <tile gid="1"/>
   <tile gid="1"/>
   <tile gid="1"/>
   <tile gid="1"/>
   <tile gid="1"/>
   <tile gid="1"/>
   <tile gid="1"/>
   <tile gid="1"/>
   <tile gid="1"/>
   <tile gid="1"/>
   <tile gid="1"/>
   <tile gid="1"/>
   <tile gid="1"/>
   <tile gid="1"/>
   <tile gid="257"/>
   <tile gid="257"/>
   <tile gid="192"/>
   <tile gid="1"/>
   <tile gid="129"/>
   <tile gid="130"/>
   <tile gid="131"/>
   <tile gid="132"/>
   <tile gid="133"/>
   <tile gid="134"/>
   <tile gid="135"/>
   <tile gid="136"/>
   <tile gid="137"/>
   <tile gid="138"/>
   <tile gid="139"/>
   <tile gid="140"/>
   <tile gid="141"/>
   <tile gid="142"/>
   <tile gid="143"/>
   <tile gid="144"/>
   <tile gid="1"/>
   <tile gid="209"/>
   <tile gid="210"/>
   <tile gid="211"/>
   <tile gid="212"/>
   <tile gid="213"/>
   <tile gid="214"/>
   <tile gid="215"/>
   <tile gid="216"/>
   <tile gid="217"/>
   <tile gid="218"/>
   <tile gid="219"/>
   <tile gid="220"/>
   <tile gid="221"/>
   <tile gid="222"/>
   <tile gid="223"/>
   <tile gid="224"/>
   <tile gid="1"/>
   <tile gid="1"/>
   <tile gid="1"/>
   <tile gid="1"/>
   <tile gid="1"/>
   <tile gid="1"/>
   <tile gid="1"/>
   <tile gid="1"/>
   <tile gid="1"/>
   <tile gid="1"/>
   <tile gid="1"/>
   <tile gid="1"/>
   <tile gid="1"/>
   <tile gid="1"/>
   <tile gid="1"/>
   <tile gid="1"/>
   <tile gid="1"/>
   <tile gid="1"/>
   <tile gid="1"/>
   <tile gid="1"/>
   <tile gid="1"/>
   <tile gid="1"/>
   <tile gid="1"/>
   <tile gid="1"/>
   <tile gid="1"/>
   <tile gid="1"/>
   <tile gid="1"/>
   <tile gid="1"/>
   <tile gid="1"/>
   <tile gid="1"/>
   <tile gid="1"/>
   <tile gid="1"/>
   <tile gid="1"/>
   <tile gid="1"/>
   <tile gid="1"/>
   <tile gid="1"/>
   <tile gid="1"/>
   <tile gid="1"/>
   <tile gid="1"/>
   <tile gid="1"/>
   <tile gid="1"/>
   <tile gid="1"/>
   <tile gid="1"/>
   <tile gid="1"/>
   <tile gid="1"/>
   <tile gid="1"/>
   <tile gid="1"/>
   <tile gid="1"/>
   <tile gid="1"/>
   <tile gid="1"/>
   <tile gid="1"/>
   <tile gid="1"/>
   <tile gid="1"/>
   <tile gid="1"/>
   <tile gid="1"/>
   <tile gid="1"/>
   <tile gid="1"/>
   <tile gid="1"/>
   <tile gid="1"/>
   <tile gid="1"/>
   <tile gid="1"/>
   <tile gid="1"/>
   <tile gid="1"/>
   <tile gid="1"/>
   <tile gid="1"/>
   <tile gid="1"/>
   <tile gid="1"/>
   <tile gid="1"/>
   <tile gid="1"/>
   <tile gid="1"/>
   <tile gid="1"/>
   <tile gid="1"/>
   <tile gid="1"/>
   <tile gid="1"/>
   <tile gid="1"/>
   <tile gid="1"/>
   <tile gid="1"/>
   <tile gid="1"/>
   <tile gid="1"/>
   <tile gid="1"/>
   <tile gid="1"/>
   <tile gid="1"/>
   <tile gid="1"/>
   <tile gid="1"/>
   <tile gid="1"/>
   <tile gid="1"/>
   <tile gid="1"/>
   <tile gid="1"/>
   <tile gid="1"/>
   <tile gid="1"/>
   <tile gid="1"/>
   <tile gid="1"/>
   <tile gid="1"/>
   <tile gid="1"/>
   <tile gid="1"/>
   <tile gid="1"/>
   <tile gid="1"/>
   <tile gid="1"/>
   <tile gid="1"/>
   <tile gid="1"/>
   <tile gid="1"/>
   <tile gid="1"/>
   <tile gid="1"/>
   <tile gid="1"/>
   <tile gid="1"/>
   <tile gid="1"/>
   <tile gid="1"/>
   <tile gid="1"/>
   <tile gid="1"/>
   <tile gid="1"/>
   <tile gid="1"/>
   <tile gid="1"/>
   <tile gid="1"/>
   <tile gid="1"/>
   <tile gid="1"/>
   <tile gid="1"/>
   <tile gid="1"/>
   <tile gid="1"/>
   <tile gid="1"/>
   <tile gid="1"/>
   <tile gid="1"/>
   <tile gid="1"/>
   <tile gid="1"/>
   <tile gid="1"/>
   <tile gid="1"/>
   <tile gid="1"/>
   <tile gid="1"/>
   <tile gid="1"/>
   <tile gid="1"/>
   <tile gid="1"/>
   <tile gid="1"/>
   <tile gid="1"/>
   <tile gid="1"/>
   <tile gid="1"/>
   <tile gid="1"/>
   <tile gid="1"/>
   <tile gid="1"/>
   <tile gid="1"/>
   <tile gid="1"/>
   <tile gid="1"/>
   <tile gid="1"/>
   <tile gid="1"/>
   <tile gid="1"/>
   <tile gid="1"/>
   <tile gid="1"/>
   <tile gid="1"/>
   <tile gid="1"/>
   <tile gid="1"/>
   <tile gid="1"/>
   <tile gid="1"/>
   <tile gid="1"/>
   <tile gid="1"/>
   <tile gid="1"/>
   <tile gid="1"/>
   <tile gid="1"/>
   <tile gid="1"/>
   <tile gid="1"/>
   <tile gid="1"/>
   <tile gid="1"/>
   <tile gid="1"/>
   <tile gid="1"/>
   <tile gid="1"/>
   <tile gid="1"/>
   <tile gid="1"/>
   <tile gid="1"/>
   <tile gid="1"/>
   <tile gid="1"/>
   <tile gid="1"/>
   <tile gid="1"/>
   <tile gid="1"/>
   <tile gid="1"/>
   <tile gid="1"/>
   <tile gid="1"/>
   <tile gid="1"/>
   <tile gid="1"/>
   <tile gid="1"/>
   <tile gid="1"/>
   <tile gid="1"/>
   <tile gid="1"/>
   <tile gid="1"/>
   <tile gid="1"/>
   <tile gid="1"/>
   <tile gid="1"/>
   <tile gid="1"/>
   <tile gid="1"/>
   <tile gid="1"/>
   <tile gid="1"/>
   <tile gid="1"/>
   <tile gid="1"/>
   <tile gid="1"/>
   <tile gid="1"/>
   <tile gid="1"/>
   <tile gid="1"/>
   <tile gid="1"/>
   <tile gid="1"/>
   <tile gid="1"/>
   <tile gid="1"/>
   <tile gid="1"/>
   <tile gid="1"/>
   <tile gid="1"/>
   <tile gid="1"/>
   <tile gid="1"/>
   <tile gid="1"/>
   <tile gid="1"/>
   <tile gid="1"/>
   <tile gid="1"/>
   <tile gid="1"/>
   <tile gid="1"/>
   <tile gid="1"/>
   <tile gid="1"/>
   <tile gid="1"/>
   <tile gid="1"/>
   <tile gid="1"/>
   <tile gid="1"/>
   <tile gid="1"/>
   <tile gid="1"/>
   <tile gid="1"/>
   <tile gid="1"/>
   <tile gid="1"/>
   <tile gid="1"/>
   <tile gid="1"/>
   <tile gid="1"/>
   <tile gid="1"/>
   <tile gid="1"/>
   <tile gid="1"/>
   <tile gid="1"/>
   <tile gid="1"/>
   <tile gid="1"/>
   <tile gid="1"/>
   <tile gid="1"/>
   <tile gid="1"/>
   <tile gid="1"/>
   <tile gid="1"/>
   <tile gid="1"/>
   <tile gid="1"/>
   <tile gid="1"/>
   <tile gid="1"/>
   <tile gid="1"/>
   <tile gid="1"/>
   <tile gid="1"/>
   <tile gid="1"/>
   <tile gid="1"/>
   <tile gid="1"/>
   <tile gid="1"/>
   <tile gid="1"/>
   <tile gid="1"/>
   <tile gid="1"/>
   <tile gid="1"/>
   <tile gid="1"/>
   <tile gid="1"/>
   <tile gid="1"/>
   <tile gid="1"/>
   <tile gid="1"/>
   <tile gid="1"/>
   <tile gid="1"/>
   <tile gid="1"/>
   <tile gid="1"/>
   <tile gid="1"/>
   <tile gid="1"/>
   <tile gid="1"/>
   <tile gid="1"/>
   <tile gid="1"/>
   <tile gid="1"/>
   <tile gid="1"/>
   <tile gid="1"/>
   <tile gid="1"/>
   <tile gid="1"/>
   <tile gid="1"/>
   <tile gid="1"/>
   <tile gid="1"/>
   <tile gid="1"/>
   <tile gid="1"/>
   <tile gid="1"/>
   <tile gid="1"/>
   <tile gid="1"/>
   <tile gid="1"/>
   <tile gid="1"/>
   <tile gid="1"/>
   <tile gid="1"/>
   <tile gid="1"/>
   <tile gid="1"/>
   <tile gid="1"/>
   <tile gid="1"/>
   <tile gid="1"/>
   <tile gid="1"/>
   <tile gid="1"/>
   <tile gid="1"/>
   <tile gid="1"/>
   <tile gid="1"/>
   <tile gid="1"/>
   <tile gid="1"/>
   <tile gid="1"/>
   <tile gid="1"/>
   <tile gid="1"/>
   <tile gid="1"/>
   <tile gid="1"/>
   <tile gid="1"/>
   <tile gid="1"/>
   <tile gid="1"/>
   <tile gid="1"/>
   <tile gid="1"/>
   <tile gid="1"/>
   <tile gid="1"/>
   <tile gid="1"/>
   <tile gid="1"/>
   <tile gid="1"/>
   <tile gid="1"/>
   <tile gid="1"/>
   <tile gid="1"/>
   <tile gid="1"/>
   <tile gid="1"/>
   <tile gid="1"/>
   <tile gid="1"/>
   <tile gid="1"/>
   <tile gid="1"/>
   <tile gid="1"/>
   <tile gid="1"/>
   <tile gid="1"/>
   <tile gid="1"/>
   <tile gid="1"/>
   <tile gid="1"/>
   <tile gid="1"/>
   <tile gid="1"/>
   <tile gid="1"/>
   <tile gid="1"/>
   <tile gid="1"/>
   <tile gid="1"/>
   <tile gid="1"/>
   <tile gid="1"/>
   <tile gid="1"/>
   <tile gid="1"/>
   <tile gid="1"/>
   <tile gid="1"/>
   <tile gid="1"/>
   <tile gid="1"/>
   <tile gid="1"/>
   <tile gid="1"/>
   <tile gid="1"/>
   <tile gid="1"/>
   <tile gid="1"/>
   <tile gid="1"/>
   <tile gid="1"/>
   <tile gid="1"/>
   <tile gid="1"/>
   <tile gid="1"/>
   <tile gid="1"/>
   <tile gid="1"/>
   <tile gid="1"/>
   <tile gid="1"/>
   <tile gid="1"/>
   <tile gid="1"/>
   <tile gid="1"/>
   <tile gid="1"/>
   <tile gid="1"/>
   <tile gid="1"/>
   <tile gid="1"/>
   <tile gid="1"/>
   <tile gid="1"/>
   <tile gid="1"/>
   <tile gid="1"/>
   <tile gid="1"/>
   <tile gid="1"/>
   <tile gid="1"/>
   <tile gid="1"/>
   <tile gid="1"/>
   <tile gid="1"/>
   <tile gid="1"/>
   <tile gid="1"/>
   <tile gid="1"/>
   <tile gid="1"/>
   <tile gid="1"/>
   <tile gid="1"/>
   <tile gid="369"/>
   <tile gid="1"/>
   <tile gid="147"/>
   <tile gid="148"/>
   <tile gid="149"/>
   <tile gid="150"/>
   <tile gid="151"/>
   <tile gid="152"/>
   <tile gid="153"/>
   <tile gid="154"/>
   <tile gid="155"/>
   <tile gid="156"/>
   <tile gid="157"/>
   <tile gid="1"/>
   <tile gid="1"/>
   <tile gid="147"/>
   <tile gid="148"/>
   <tile gid="149"/>
   <tile gid="150"/>
   <tile gid="151"/>
   <tile gid="152"/>
   <tile gid="153"/>
   <tile gid="154"/>
   <tile gid="155"/>
   <tile gid="156"/>
   <tile gid="157"/>
   <tile gid="1"/>
   <tile gid="147"/>
   <tile gid="148"/>
   <tile gid="149"/>
   <tile gid="150"/>
   <tile gid="151"/>
   <tile gid="152"/>
   <tile gid="153"/>
   <tile gid="154"/>
   <tile gid="155"/>
   <tile gid="156"/>
   <tile gid="157"/>
   <tile gid="1"/>
   <tile gid="1"/>
   <tile gid="1"/>
   <tile gid="1"/>
   <tile gid="1"/>
   <tile gid="1"/>
   <tile gid="1"/>
   <tile gid="1"/>
   <tile gid="1"/>
   <tile gid="1"/>
   <tile gid="1"/>
   <tile gid="1"/>
   <tile gid="1"/>
   <tile gid="1"/>
   <tile gid="1"/>
   <tile gid="1"/>
   <tile gid="1"/>
   <tile gid="1"/>
   <tile gid="1"/>
   <tile gid="1"/>
   <tile gid="1"/>
   <tile gid="1"/>
   <tile gid="1"/>
   <tile gid="1"/>
   <tile gid="1"/>
   <tile gid="1"/>
   <tile gid="1"/>
   <tile gid="1"/>
   <tile gid="1"/>
   <tile gid="1"/>
   <tile gid="1"/>
   <tile gid="257"/>
   <tile gid="257"/>
   <tile gid="206"/>
   <tile gid="207"/>
   <tile gid="208"/>
   <tile gid="1"/>
   <tile gid="145"/>
   <tile gid="146"/>
   <tile gid="147"/>
   <tile gid="148"/>
   <tile gid="149"/>
   <tile gid="150"/>
   <tile gid="151"/>
   <tile gid="152"/>
   <tile gid="153"/>
   <tile gid="154"/>
   <tile gid="155"/>
   <tile gid="156"/>
   <tile gid="157"/>
   <tile gid="158"/>
   <tile gid="159"/>
   <tile gid="160"/>
   <tile gid="1"/>
   <tile gid="1"/>
   <tile gid="1"/>
   <tile gid="1"/>
   <tile gid="1"/>
   <tile gid="1"/>
   <tile gid="1"/>
   <tile gid="1"/>
   <tile gid="1"/>
   <tile gid="1"/>
   <tile gid="1"/>
   <tile gid="1"/>
   <tile gid="1"/>
   <tile gid="1"/>
   <tile gid="1"/>
   <tile gid="1"/>
   <tile gid="1"/>
   <tile gid="1"/>
   <tile gid="1"/>
   <tile gid="1"/>
   <tile gid="1"/>
   <tile gid="1"/>
   <tile gid="1"/>
   <tile gid="1"/>
   <tile gid="1"/>
   <tile gid="1"/>
   <tile gid="1"/>
   <tile gid="1"/>
   <tile gid="1"/>
   <tile gid="1"/>
   <tile gid="1"/>
   <tile gid="1"/>
   <tile gid="1"/>
   <tile gid="1"/>
   <tile gid="1"/>
   <tile gid="1"/>
   <tile gid="1"/>
   <tile gid="1"/>
   <tile gid="1"/>
   <tile gid="1"/>
   <tile gid="1"/>
   <tile gid="1"/>
   <tile gid="1"/>
   <tile gid="1"/>
   <tile gid="1"/>
   <tile gid="1"/>
   <tile gid="1"/>
   <tile gid="1"/>
   <tile gid="1"/>
   <tile gid="1"/>
   <tile gid="1"/>
   <tile gid="1"/>
   <tile gid="1"/>
   <tile gid="1"/>
   <tile gid="1"/>
   <tile gid="1"/>
   <tile gid="1"/>
   <tile gid="1"/>
   <tile gid="1"/>
   <tile gid="1"/>
   <tile gid="1"/>
   <tile gid="1"/>
   <tile gid="1"/>
   <tile gid="1"/>
   <tile gid="1"/>
   <tile gid="1"/>
   <tile gid="1"/>
   <tile gid="1"/>
   <tile gid="1"/>
   <tile gid="1"/>
   <tile gid="1"/>
   <tile gid="1"/>
   <tile gid="1"/>
   <tile gid="1"/>
   <tile gid="1"/>
   <tile gid="1"/>
   <tile gid="1"/>
   <tile gid="1"/>
   <tile gid="1"/>
   <tile gid="1"/>
   <tile gid="1"/>
   <tile gid="1"/>
   <tile gid="1"/>
   <tile gid="1"/>
   <tile gid="1"/>
   <tile gid="1"/>
   <tile gid="1"/>
   <tile gid="1"/>
   <tile gid="1"/>
   <tile gid="1"/>
   <tile gid="1"/>
   <tile gid="1"/>
   <tile gid="1"/>
   <tile gid="1"/>
   <tile gid="1"/>
   <tile gid="1"/>
   <tile gid="1"/>
   <tile gid="1"/>
   <tile gid="1"/>
   <tile gid="1"/>
   <tile gid="1"/>
   <tile gid="1"/>
   <tile gid="1"/>
   <tile gid="1"/>
   <tile gid="1"/>
   <tile gid="1"/>
   <tile gid="1"/>
   <tile gid="1"/>
   <tile gid="1"/>
   <tile gid="1"/>
   <tile gid="1"/>
   <tile gid="1"/>
   <tile gid="1"/>
   <tile gid="1"/>
   <tile gid="1"/>
   <tile gid="1"/>
   <tile gid="1"/>
   <tile gid="1"/>
   <tile gid="1"/>
   <tile gid="1"/>
   <tile gid="1"/>
   <tile gid="1"/>
   <tile gid="1"/>
   <tile gid="1"/>
   <tile gid="1"/>
   <tile gid="1"/>
   <tile gid="1"/>
   <tile gid="1"/>
   <tile gid="1"/>
   <tile gid="1"/>
   <tile gid="1"/>
   <tile gid="1"/>
   <tile gid="1"/>
   <tile gid="1"/>
   <tile gid="1"/>
   <tile gid="1"/>
   <tile gid="1"/>
   <tile gid="1"/>
   <tile gid="1"/>
   <tile gid="1"/>
   <tile gid="1"/>
   <tile gid="1"/>
   <tile gid="1"/>
   <tile gid="1"/>
   <tile gid="1"/>
   <tile gid="1"/>
   <tile gid="1"/>
   <tile gid="1"/>
   <tile gid="1"/>
   <tile gid="1"/>
   <tile gid="1"/>
   <tile gid="1"/>
   <tile gid="1"/>
   <tile gid="1"/>
   <tile gid="1"/>
   <tile gid="1"/>
   <tile gid="1"/>
   <tile gid="1"/>
   <tile gid="1"/>
   <tile gid="1"/>
   <tile gid="1"/>
   <tile gid="1"/>
   <tile gid="1"/>
   <tile gid="1"/>
   <tile gid="1"/>
   <tile gid="1"/>
   <tile gid="1"/>
   <tile gid="1"/>
   <tile gid="1"/>
   <tile gid="1"/>
   <tile gid="1"/>
   <tile gid="1"/>
   <tile gid="1"/>
   <tile gid="1"/>
   <tile gid="1"/>
   <tile gid="1"/>
   <tile gid="1"/>
   <tile gid="1"/>
   <tile gid="1"/>
   <tile gid="1"/>
   <tile gid="1"/>
   <tile gid="1"/>
   <tile gid="1"/>
   <tile gid="1"/>
   <tile gid="1"/>
   <tile gid="1"/>
   <tile gid="1"/>
   <tile gid="1"/>
   <tile gid="1"/>
   <tile gid="1"/>
   <tile gid="1"/>
   <tile gid="1"/>
   <tile gid="1"/>
   <tile gid="1"/>
   <tile gid="1"/>
   <tile gid="1"/>
   <tile gid="1"/>
   <tile gid="1"/>
   <tile gid="1"/>
   <tile gid="1"/>
   <tile gid="1"/>
   <tile gid="1"/>
   <tile gid="1"/>
   <tile gid="1"/>
   <tile gid="1"/>
   <tile gid="1"/>
   <tile gid="1"/>
   <tile gid="1"/>
   <tile gid="1"/>
   <tile gid="1"/>
   <tile gid="1"/>
   <tile gid="1"/>
   <tile gid="1"/>
   <tile gid="1"/>
   <tile gid="1"/>
   <tile gid="1"/>
   <tile gid="1"/>
   <tile gid="1"/>
   <tile gid="1"/>
   <tile gid="1"/>
   <tile gid="1"/>
   <tile gid="1"/>
   <tile gid="1"/>
   <tile gid="1"/>
   <tile gid="1"/>
   <tile gid="1"/>
   <tile gid="1"/>
   <tile gid="1"/>
   <tile gid="1"/>
   <tile gid="1"/>
   <tile gid="1"/>
   <tile gid="1"/>
   <tile gid="1"/>
   <tile gid="1"/>
   <tile gid="1"/>
   <tile gid="1"/>
   <tile gid="1"/>
   <tile gid="1"/>
   <tile gid="1"/>
   <tile gid="1"/>
   <tile gid="1"/>
   <tile gid="1"/>
   <tile gid="1"/>
   <tile gid="1"/>
   <tile gid="1"/>
   <tile gid="1"/>
   <tile gid="1"/>
   <tile gid="1"/>
   <tile gid="1"/>
   <tile gid="1"/>
   <tile gid="1"/>
   <tile gid="1"/>
   <tile gid="1"/>
   <tile gid="1"/>
   <tile gid="1"/>
   <tile gid="1"/>
   <tile gid="1"/>
   <tile gid="1"/>
   <tile gid="1"/>
   <tile gid="1"/>
   <tile gid="1"/>
   <tile gid="1"/>
   <tile gid="1"/>
   <tile gid="1"/>
   <tile gid="1"/>
   <tile gid="1"/>
   <tile gid="1"/>
   <tile gid="1"/>
   <tile gid="1"/>
   <tile gid="1"/>
   <tile gid="1"/>
   <tile gid="1"/>
   <tile gid="1"/>
   <tile gid="1"/>
   <tile gid="1"/>
   <tile gid="1"/>
   <tile gid="1"/>
   <tile gid="1"/>
   <tile gid="1"/>
   <tile gid="1"/>
   <tile gid="1"/>
   <tile gid="1"/>
   <tile gid="1"/>
   <tile gid="1"/>
   <tile gid="1"/>
   <tile gid="1"/>
   <tile gid="1"/>
   <tile gid="1"/>
   <tile gid="1"/>
   <tile gid="1"/>
   <tile gid="1"/>
   <tile gid="1"/>
   <tile gid="1"/>
   <tile gid="1"/>
   <tile gid="1"/>
   <tile gid="1"/>
   <tile gid="1"/>
   <tile gid="1"/>
   <tile gid="1"/>
   <tile gid="1"/>
   <tile gid="1"/>
   <tile gid="1"/>
   <tile gid="1"/>
   <tile gid="1"/>
   <tile gid="1"/>
   <tile gid="1"/>
   <tile gid="1"/>
   <tile gid="1"/>
   <tile gid="1"/>
   <tile gid="1"/>
   <tile gid="1"/>
   <tile gid="1"/>
   <tile gid="1"/>
   <tile gid="1"/>
   <tile gid="1"/>
   <tile gid="1"/>
   <tile gid="1"/>
   <tile gid="1"/>
   <tile gid="1"/>
   <tile gid="1"/>
   <tile gid="1"/>
   <tile gid="1"/>
   <tile gid="1"/>
   <tile gid="1"/>
   <tile gid="1"/>
   <tile gid="1"/>
   <tile gid="1"/>
   <tile gid="1"/>
   <tile gid="1"/>
   <tile gid="1"/>
   <tile gid="1"/>
   <tile gid="1"/>
   <tile gid="1"/>
   <tile gid="1"/>
   <tile gid="1"/>
   <tile gid="1"/>
   <tile gid="1"/>
   <tile gid="1"/>
   <tile gid="1"/>
   <tile gid="1"/>
   <tile gid="1"/>
   <tile gid="1"/>
   <tile gid="1"/>
   <tile gid="1"/>
   <tile gid="1"/>
   <tile gid="1"/>
   <tile gid="1"/>
   <tile gid="1"/>
   <tile gid="1"/>
   <tile gid="1"/>
   <tile gid="1"/>
   <tile gid="1"/>
   <tile gid="1"/>
   <tile gid="1"/>
   <tile gid="1"/>
   <tile gid="1"/>
   <tile gid="1"/>
   <tile gid="1"/>
   <tile gid="1"/>
   <tile gid="1"/>
   <tile gid="1"/>
   <tile gid="1"/>
   <tile gid="1"/>
   <tile gid="1"/>
   <tile gid="1"/>
   <tile gid="1"/>
   <tile gid="1"/>
   <tile gid="1"/>
   <tile gid="1"/>
   <tile gid="1"/>
   <tile gid="1"/>
   <tile gid="1"/>
   <tile gid="1"/>
   <tile gid="1"/>
   <tile gid="1"/>
   <tile gid="1"/>
   <tile gid="1"/>
   <tile gid="1"/>
   <tile gid="1"/>
   <tile gid="1"/>
   <tile gid="1"/>
   <tile gid="1"/>
   <tile gid="1"/>
   <tile gid="1"/>
   <tile gid="1"/>
   <tile gid="1"/>
   <tile gid="1"/>
   <tile gid="1"/>
   <tile gid="1"/>
   <tile gid="1"/>
   <tile gid="1"/>
   <tile gid="257"/>
   <tile gid="257"/>
   <tile gid="257"/>
   <tile gid="257"/>
   <tile gid="257"/>
   <tile gid="257"/>
   <tile gid="257"/>
   <tile gid="257"/>
   <tile gid="257"/>
   <tile gid="257"/>
   <tile gid="257"/>
   <tile gid="1"/>
   <tile gid="1"/>
   <tile gid="257"/>
   <tile gid="257"/>
   <tile gid="257"/>
   <tile gid="257"/>
   <tile gid="257"/>
   <tile gid="257"/>
   <tile gid="257"/>
   <tile gid="257"/>
   <tile gid="257"/>
   <tile gid="257"/>
   <tile gid="257"/>
   <tile gid="1"/>
   <tile gid="257"/>
   <tile gid="257"/>
   <tile gid="257"/>
   <tile gid="257"/>
   <tile gid="257"/>
   <tile gid="257"/>
   <tile gid="257"/>
   <tile gid="257"/>
   <tile gid="257"/>
   <tile gid="257"/>
   <tile gid="257"/>
   <tile gid="1"/>
   <tile gid="1"/>
   <tile gid="1"/>
   <tile gid="1"/>
   <tile gid="1"/>
   <tile gid="1"/>
   <tile gid="1"/>
   <tile gid="1"/>
   <tile gid="1"/>
   <tile gid="1"/>
   <tile gid="1"/>
   <tile gid="1"/>
   <tile gid="1"/>
   <tile gid="1"/>
   <tile gid="1"/>
   <tile gid="1"/>
   <tile gid="1"/>
   <tile gid="1"/>
   <tile gid="1"/>
   <tile gid="1"/>
   <tile gid="1"/>
   <tile gid="1"/>
   <tile gid="1"/>
   <tile gid="1"/>
   <tile gid="1"/>
   <tile gid="1"/>
   <tile gid="1"/>
   <tile gid="1"/>
   <tile gid="1"/>
   <tile gid="257"/>
   <tile gid="257"/>
   <tile gid="257"/>
   <tile gid="257"/>
   <tile gid="257"/>
   <tile gid="257"/>
   <tile gid="257"/>
   <tile gid="257"/>
   <tile gid="257"/>
   <tile gid="257"/>
   <tile gid="257"/>
   <tile gid="257"/>
   <tile gid="257"/>
   <tile gid="257"/>
   <tile gid="257"/>
   <tile gid="257"/>
   <tile gid="257"/>
   <tile gid="257"/>
   <tile gid="257"/>
   <tile gid="257"/>
   <tile gid="257"/>
   <tile gid="257"/>
   <tile gid="257"/>
   <tile gid="257"/>
   <tile gid="257"/>
   <tile gid="257"/>
   <tile gid="257"/>
   <tile gid="257"/>
   <tile gid="257"/>
   <tile gid="257"/>
   <tile gid="257"/>
   <tile gid="257"/>
   <tile gid="257"/>
   <tile gid="257"/>
   <tile gid="257"/>
   <tile gid="257"/>
   <tile gid="257"/>
   <tile gid="257"/>
   <tile gid="257"/>
   <tile gid="257"/>
   <tile gid="257"/>
   <tile gid="257"/>
   <tile gid="257"/>
   <tile gid="257"/>
   <tile gid="257"/>
   <tile gid="257"/>
   <tile gid="257"/>
   <tile gid="257"/>
   <tile gid="257"/>
   <tile gid="257"/>
   <tile gid="257"/>
   <tile gid="257"/>
   <tile gid="257"/>
   <tile gid="257"/>
   <tile gid="257"/>
   <tile gid="257"/>
   <tile gid="257"/>
   <tile gid="257"/>
   <tile gid="257"/>
   <tile gid="257"/>
   <tile gid="257"/>
   <tile gid="257"/>
   <tile gid="257"/>
   <tile gid="257"/>
   <tile gid="257"/>
   <tile gid="257"/>
   <tile gid="257"/>
   <tile gid="257"/>
   <tile gid="257"/>
   <tile gid="257"/>
   <tile gid="257"/>
   <tile gid="257"/>
   <tile gid="257"/>
   <tile gid="257"/>
   <tile gid="257"/>
   <tile gid="257"/>
   <tile gid="257"/>
   <tile gid="257"/>
   <tile gid="257"/>
   <tile gid="257"/>
   <tile gid="257"/>
   <tile gid="257"/>
   <tile gid="257"/>
   <tile gid="257"/>
   <tile gid="257"/>
   <tile gid="257"/>
   <tile gid="257"/>
   <tile gid="257"/>
   <tile gid="257"/>
   <tile gid="257"/>
   <tile gid="257"/>
   <tile gid="257"/>
   <tile gid="257"/>
   <tile gid="257"/>
   <tile gid="257"/>
   <tile gid="257"/>
   <tile gid="257"/>
   <tile gid="257"/>
   <tile gid="257"/>
   <tile gid="257"/>
   <tile gid="257"/>
   <tile gid="257"/>
   <tile gid="257"/>
   <tile gid="257"/>
   <tile gid="257"/>
   <tile gid="257"/>
   <tile gid="257"/>
   <tile gid="257"/>
   <tile gid="257"/>
   <tile gid="257"/>
   <tile gid="257"/>
   <tile gid="257"/>
   <tile gid="257"/>
   <tile gid="257"/>
   <tile gid="257"/>
   <tile gid="257"/>
   <tile gid="257"/>
   <tile gid="257"/>
   <tile gid="257"/>
   <tile gid="257"/>
   <tile gid="257"/>
   <tile gid="257"/>
   <tile gid="257"/>
   <tile gid="257"/>
   <tile gid="257"/>
   <tile gid="257"/>
   <tile gid="257"/>
   <tile gid="257"/>
   <tile gid="257"/>
   <tile gid="257"/>
   <tile gid="257"/>
   <tile gid="257"/>
   <tile gid="257"/>
   <tile gid="257"/>
   <tile gid="257"/>
   <tile gid="257"/>
   <tile gid="257"/>
   <tile gid="257"/>
   <tile gid="257"/>
   <tile gid="257"/>
   <tile gid="257"/>
   <tile gid="257"/>
   <tile gid="257"/>
   <tile gid="257"/>
   <tile gid="257"/>
   <tile gid="257"/>
   <tile gid="257"/>
   <tile gid="257"/>
   <tile gid="257"/>
   <tile gid="257"/>
   <tile gid="257"/>
   <tile gid="257"/>
   <tile gid="257"/>
   <tile gid="257"/>
   <tile gid="257"/>
   <tile gid="257"/>
   <tile gid="257"/>
   <tile gid="257"/>
   <tile gid="257"/>
   <tile gid="257"/>
   <tile gid="257"/>
   <tile gid="257"/>
   <tile gid="257"/>
   <tile gid="257"/>
   <tile gid="257"/>
   <tile gid="257"/>
   <tile gid="257"/>
   <tile gid="257"/>
   <tile gid="257"/>
   <tile gid="257"/>
   <tile gid="257"/>
   <tile gid="257"/>
   <tile gid="257"/>
   <tile gid="257"/>
   <tile gid="257"/>
   <tile gid="257"/>
   <tile gid="257"/>
   <tile gid="257"/>
   <tile gid="257"/>
   <tile gid="257"/>
   <tile gid="257"/>
   <tile gid="257"/>
   <tile gid="257"/>
   <tile gid="257"/>
   <tile gid="257"/>
   <tile gid="257"/>
   <tile gid="257"/>
   <tile gid="257"/>
   <tile gid="257"/>
   <tile gid="257"/>
   <tile gid="257"/>
   <tile gid="257"/>
   <tile gid="257"/>
   <tile gid="257"/>
   <tile gid="257"/>
   <tile gid="257"/>
   <tile gid="257"/>
   <tile gid="257"/>
   <tile gid="257"/>
   <tile gid="257"/>
   <tile gid="257"/>
   <tile gid="257"/>
   <tile gid="257"/>
   <tile gid="257"/>
   <tile gid="257"/>
   <tile gid="257"/>
   <tile gid="257"/>
   <tile gid="257"/>
   <tile gid="257"/>
   <tile gid="257"/>
   <tile gid="257"/>
   <tile gid="257"/>
   <tile gid="257"/>
   <tile gid="257"/>
   <tile gid="257"/>
   <tile gid="257"/>
   <tile gid="257"/>
   <tile gid="257"/>
   <tile gid="257"/>
   <tile gid="257"/>
   <tile gid="257"/>
   <tile gid="257"/>
   <tile gid="257"/>
   <tile gid="257"/>
   <tile gid="257"/>
   <tile gid="257"/>
   <tile gid="257"/>
   <tile gid="257"/>
   <tile gid="257"/>
   <tile gid="257"/>
   <tile gid="257"/>
   <tile gid="257"/>
   <tile gid="257"/>
   <tile gid="257"/>
   <tile gid="257"/>
   <tile gid="257"/>
   <tile gid="257"/>
   <tile gid="257"/>
   <tile gid="257"/>
   <tile gid="257"/>
   <tile gid="257"/>
   <tile gid="257"/>
   <tile gid="257"/>
   <tile gid="257"/>
   <tile gid="257"/>
   <tile gid="257"/>
   <tile gid="257"/>
   <tile gid="257"/>
   <tile gid="257"/>
   <tile gid="257"/>
   <tile gid="257"/>
   <tile gid="257"/>
   <tile gid="257"/>
   <tile gid="257"/>
   <tile gid="257"/>
   <tile gid="257"/>
   <tile gid="257"/>
   <tile gid="257"/>
   <tile gid="257"/>
   <tile gid="257"/>
   <tile gid="257"/>
   <tile gid="257"/>
   <tile gid="257"/>
   <tile gid="257"/>
   <tile gid="257"/>
   <tile gid="257"/>
   <tile gid="257"/>
   <tile gid="257"/>
   <tile gid="257"/>
   <tile gid="257"/>
   <tile gid="257"/>
   <tile gid="257"/>
   <tile gid="257"/>
   <tile gid="257"/>
   <tile gid="257"/>
   <tile gid="257"/>
   <tile gid="257"/>
   <tile gid="257"/>
   <tile gid="257"/>
   <tile gid="257"/>
   <tile gid="257"/>
   <tile gid="257"/>
   <tile gid="257"/>
   <tile gid="257"/>
   <tile gid="257"/>
   <tile gid="257"/>
   <tile gid="257"/>
   <tile gid="257"/>
   <tile gid="257"/>
   <tile gid="257"/>
   <tile gid="257"/>
   <tile gid="257"/>
   <tile gid="257"/>
   <tile gid="257"/>
   <tile gid="257"/>
   <tile gid="257"/>
   <tile gid="257"/>
   <tile gid="257"/>
   <tile gid="257"/>
   <tile gid="257"/>
   <tile gid="257"/>
   <tile gid="257"/>
   <tile gid="257"/>
   <tile gid="257"/>
   <tile gid="257"/>
   <tile gid="257"/>
   <tile gid="257"/>
   <tile gid="257"/>
   <tile gid="257"/>
   <tile gid="257"/>
   <tile gid="257"/>
   <tile gid="257"/>
   <tile gid="257"/>
   <tile gid="257"/>
   <tile gid="257"/>
   <tile gid="257"/>
   <tile gid="257"/>
   <tile gid="257"/>
   <tile gid="257"/>
   <tile gid="257"/>
   <tile gid="257"/>
   <tile gid="257"/>
   <tile gid="257"/>
   <tile gid="257"/>
   <tile gid="257"/>
   <tile gid="257"/>
   <tile gid="257"/>
   <tile gid="257"/>
   <tile gid="257"/>
   <tile gid="257"/>
   <tile gid="257"/>
   <tile gid="257"/>
   <tile gid="257"/>
   <tile gid="257"/>
   <tile gid="257"/>
   <tile gid="257"/>
   <tile gid="257"/>
   <tile gid="257"/>
   <tile gid="257"/>
   <tile gid="257"/>
   <tile gid="257"/>
   <tile gid="257"/>
   <tile gid="257"/>
   <tile gid="257"/>
   <tile gid="257"/>
   <tile gid="257"/>
   <tile gid="257"/>
   <tile gid="257"/>
   <tile gid="257"/>
   <tile gid="257"/>
   <tile gid="257"/>
   <tile gid="257"/>
   <tile gid="257"/>
   <tile gid="257"/>
   <tile gid="257"/>
   <tile gid="257"/>
   <tile gid="257"/>
   <tile gid="257"/>
   <tile gid="257"/>
   <tile gid="257"/>
   <tile gid="257"/>
   <tile gid="257"/>
   <tile gid="257"/>
   <tile gid="257"/>
   <tile gid="257"/>
   <tile gid="257"/>
   <tile gid="257"/>
   <tile gid="257"/>
   <tile gid="257"/>
   <tile gid="257"/>
   <tile gid="257"/>
   <tile gid="257"/>
   <tile gid="257"/>
   <tile gid="257"/>
   <tile gid="257"/>
   <tile gid="257"/>
   <tile gid="257"/>
   <tile gid="257"/>
   <tile gid="257"/>
   <tile gid="257"/>
   <tile gid="257"/>
   <tile gid="257"/>
   <tile gid="257"/>
   <tile gid="257"/>
   <tile gid="257"/>
   <tile gid="257"/>
   <tile gid="257"/>
   <tile gid="257"/>
   <tile gid="257"/>
   <tile gid="257"/>
   <tile gid="257"/>
   <tile gid="257"/>
   <tile gid="257"/>
   <tile gid="257"/>
   <tile gid="257"/>
   <tile gid="257"/>
   <tile gid="257"/>
   <tile gid="257"/>
   <tile gid="257"/>
   <tile gid="257"/>
   <tile gid="257"/>
   <tile gid="257"/>
   <tile gid="257"/>
   <tile gid="257"/>
   <tile gid="257"/>
   <tile gid="257"/>
   <tile gid="257"/>
   <tile gid="257"/>
   <tile gid="257"/>
   <tile gid="257"/>
  </data>
 </layer>
 <objectgroup id="2" name="Wavemap" offsetx="-256" offsety="0">
  <object id="1929" name="start" x="386" y="162" rotation="90"/>
  <object id="1930" name="spedUpgr" x="445" y="117" rotation="90">
   <properties>
    <property name="hit" value="-1"/>
    <property name="xadd" value="0"/>
    <property name="yadd" value="1"/>
   </properties>
  </object>
  <object id="1931" name="escalate" x="-71" y="-3974" rotation="90">
   <properties>
    <property name="hit" value="0"/>
    <property name="xadd" value="0"/>
    <property name="yadd" value="0"/>
   </properties>
  </object>
  <object id="1932" name="exitStge" x="135" y="-4705" rotation="90">
   <properties>
    <property name="hit" value="2"/>
    <property name="xadd" value="0"/>
    <property name="yadd" value="0"/>
   </properties>
  </object>
  <object id="1933" name="vfxBoss1" x="-41" y="-502" rotation="90">
   <properties>
    <property name="hit" value="0"/>
    <property name="xadd" value="0"/>
    <property name="yadd" value="1"/>
   </properties>
  </object>
  <object id="1934" name="crabAtak" x="34" y="-2170" rotation="90">
   <properties>
    <property name="hit" value="18"/>
   </properties>
  </object>
  <object id="1935" name="debrisGo" x="67" y="-4765" rotation="90">
   <properties>
    <property name="hit" value="1"/>
    <property name="xadd" value="0"/>
    <property name="yadd" value="1"/>
   </properties>
  </object>
  <object id="1936" name="weapUpgr" x="115" y="3882" rotation="90">
   <properties>
    <property name="hit" value="-1"/>
    <property name="xadd" value="0"/>
    <property name="yadd" value="1"/>
   </properties>
  </object>
  <object id="1937" name="weapUpgr" x="89" y="1871" rotation="90">
   <properties>
    <property name="hit" value="-1"/>
    <property name="xadd" value="0"/>
    <property name="yadd" value="0"/>
   </properties>
  </object>
  <object id="1938" name="bossCtrl" x="146" y="-4368" rotation="90">
   <properties>
    <property name="hit" value="0"/>
    <property name="xadd" value="0"/>
    <property name="yadd" value="0"/>
   </properties>
  </object>
  <object id="1939" name="scrlCtlB" x="98" y="-4410" rotation="90">
   <properties>
    <property name="hit" value="0"/>
   </properties>
  </object>
  <object id="1940" name="vfxBosss" x="204" y="-4428" rotation="90">
   <properties>
    <property name="hit" value="0"/>
    <property name="xadd" value="0"/>
    <property name="yadd" value="0"/>
   </properties>
  </object>
  <object id="1941" name="spikerWE" x="57" y="3634" rotation="90">
   <properties>
    <property name="copy" value="15"/>
    <property name="gap" value="3"/>
    <property name="hit" value="0"/>
    <property name="link" value=""/>
    <property name="xadd" value="0"/>
    <property name="yadd" value="0"/>
   </properties>
  </object>
  <object id="1942" name="krakWCbb" x="67" y="2812" rotation="90">
   <properties>
    <property name="copy" value="8"/>
    <property name="gap" value="12"/>
    <property name="hit" value="2"/>
    <property name="xadd" value="0"/>
    <property name="yadd" value="0"/>
   </properties>
  </object>
  <object id="1943" name="spikerEW" x="194" y="3852" rotation="90">
   <properties>
    <property name="copy" value="15"/>
    <property name="gap" value="3"/>
    <property name="hit" value="0"/>
    <property name="link" value=""/>
    <property name="xadd" value="0"/>
    <property name="yadd" value="0"/>
   </properties>
  </object>
  <object id="1944" name="spikerWE" x="59" y="3936" rotation="90">
   <properties>
    <property name="copy" value="15"/>
    <property name="gap" value="3"/>
    <property name="hit" value="0"/>
    <property name="link" value=""/>
    <property name="xadd" value="0"/>
    <property name="yadd" value="0"/>
   </properties>
  </object>
  <object id="1945" name="spikerWE" x="34" y="3758" rotation="90">
   <properties>
    <property name="copy" value="15"/>
    <property name="gap" value="3"/>
    <property name="hit" value="0"/>
    <property name="link" value=""/>
    <property name="xadd" value="0"/>
    <property name="yadd" value="0"/>
   </properties>
  </object>
  <object id="1946" name="spikrEWb" x="200" y="3712" rotation="90">
   <properties>
    <property name="copy" value="15"/>
    <property name="gap" value="3"/>
    <property name="hit" value="0"/>
    <property name="link" value=""/>
    <property name="xadd" value="0"/>
    <property name="yadd" value="0"/>
   </properties>
  </object>
  <object id="1947" name="spikrEWb" x="191" y="3472" rotation="90">
   <properties>
    <property name="copy" value="15"/>
    <property name="gap" value="3"/>
    <property name="hit" value="0"/>
    <property name="link" value=""/>
    <property name="xadd" value="0"/>
    <property name="yadd" value="0"/>
   </properties>
  </object>
  <object id="1948" name="tentBase" x="201" y="3551" rotation="90">
   <properties>
    <property name="hit" value="10"/>
    <property name="xadd" value="0"/>
    <property name="yadd" value="0"/>
   </properties>
  </object>
  <object id="1949" name="tileAniA" x="240" y="-3328" rotation="90">
   <properties>
    <property name="hit" value="-1"/>
   </properties>
  </object>
  <object id="1950" name="dialogue" x="-141" y="3196" rotation="90">
   <properties>
    <property name="hit" value="0"/>
    <property name="xadd" value="0"/>
    <property name="yadd" value="1"/>
   </properties>
  </object>
  <object id="1951" name="krakECbb" x="233" y="2812" rotation="90">
   <properties>
    <property name="copy" value="8"/>
    <property name="gap" value="12"/>
    <property name="hit" value="2"/>
    <property name="xadd" value="0"/>
    <property name="yadd" value="0"/>
   </properties>
  </object>
  <object id="1952" name="krakSbWx" x="135" y="2536" rotation="90">
   <properties>
    <property name="copy" value="4"/>
    <property name="gap" value="14"/>
    <property name="hit" value="2"/>
    <property name="xadd" value="0"/>
    <property name="yadd" value="0"/>
   </properties>
  </object>
  <object id="1953" name="krakSbEx" x="135" y="2531" rotation="90">
   <properties>
    <property name="copy" value="4"/>
    <property name="gap" value="14"/>
    <property name="hit" value="2"/>
    <property name="xadd" value="0"/>
    <property name="yadd" value="0"/>
   </properties>
  </object>
  <object id="1954" name="tileAniA" x="241" y="3586" rotation="90">
   <properties>
    <property name="hit" value="-1"/>
   </properties>
  </object>
  <object id="1955" name="spikrWEb" x="22" y="2173" rotation="90">
   <properties>
    <property name="copy" value="15"/>
    <property name="gap" value="3"/>
    <property name="hit" value="0"/>
    <property name="link" value=""/>
    <property name="xadd" value="0"/>
    <property name="yadd" value="0"/>
   </properties>
  </object>
  <object id="1956" name="spikrEWb" x="210" y="1861" rotation="90">
   <properties>
    <property name="copy" value="15"/>
    <property name="gap" value="3"/>
    <property name="hit" value="0"/>
    <property name="link" value=""/>
    <property name="xadd" value="0"/>
    <property name="yadd" value="0"/>
   </properties>
  </object>
  <object id="1957" name="krakSENN" x="118" y="1929" rotation="90">
   <properties>
    <property name="copy" value="8"/>
    <property name="gap" value="11"/>
    <property name="hit" value="2"/>
    <property name="opaque" value=""/>
    <property name="xadd" value="0"/>
    <property name="yadd" value="0"/>
   </properties>
  </object>
  <object id="1958" name="krakSWNN" x="158" y="1950" rotation="90">
   <properties>
    <property name="copy" value="8"/>
    <property name="gap" value="11"/>
    <property name="hit" value="2"/>
    <property name="opaque" value=""/>
    <property name="xadd" value="0"/>
    <property name="yadd" value="0"/>
   </properties>
  </object>
  <object id="1959" name="krkSWARN" x="123" y="2109" rotation="90">
   <properties>
    <property name="copy" value="0"/>
    <property name="gap" value="6"/>
    <property name="hit" value="1"/>
    <property name="opaque" value=""/>
    <property name="xadd" value="0"/>
    <property name="yadd" value="0"/>
   </properties>
  </object>
  <object id="1960" name="krkSWARN" x="53" y="2083" rotation="90">
   <properties>
    <property name="copy" value="0"/>
    <property name="gap" value="6"/>
    <property name="hit" value="1"/>
    <property name="opaque" value=""/>
    <property name="xadd" value="0"/>
    <property name="yadd" value="0"/>
   </properties>
  </object>
  <object id="1961" name="krkNESSe" x="158" y="1543" rotation="90">
   <properties>
    <property name="copy" value="8"/>
    <property name="gap" value="11"/>
    <property name="hit" value="2"/>
    <property name="opaque" value=""/>
    <property name="xadd" value="0"/>
    <property name="yadd" value="0"/>
   </properties>
  </object>
  <object id="1962" name="krkNWSSe" x="115" y="1543" rotation="90">
   <properties>
    <property name="copy" value="8"/>
    <property name="gap" value="11"/>
    <property name="hit" value="2"/>
    <property name="opaque" value=""/>
    <property name="xadd" value="0"/>
    <property name="yadd" value="0"/>
   </properties>
  </object>
  <object id="1963" name="shellSEj" x="217" y="1805" rotation="90">
   <properties>
    <property name="copy" value="1"/>
    <property name="gap" value="60"/>
    <property name="hit" value="4"/>
    <property name="xadd" value="0"/>
    <property name="yadd" value="1"/>
   </properties>
  </object>
  <object id="1964" name="shellSEj" x="220" y="1552" rotation="90">
   <properties>
    <property name="copy" value="1"/>
    <property name="gap" value="60"/>
    <property name="hit" value="4"/>
    <property name="xadd" value="0"/>
    <property name="yadd" value="1"/>
   </properties>
  </object>
  <object id="1965" name="shellSWj" x="45" y="1569" rotation="90">
   <properties>
    <property name="copy" value="1"/>
    <property name="gap" value="60"/>
    <property name="hit" value="4"/>
    <property name="xadd" value="0"/>
    <property name="yadd" value="1"/>
   </properties>
  </object>
  <object id="1966" name="shellSWj" x="60" y="1747" rotation="90">
   <properties>
    <property name="copy" value="1"/>
    <property name="gap" value="60"/>
    <property name="hit" value="4"/>
    <property name="xadd" value="0"/>
    <property name="yadd" value="1"/>
   </properties>
  </object>
  <object id="1967" name="shellSEj" x="89" y="887" rotation="90">
   <properties>
    <property name="copy" value="4"/>
    <property name="gap" value="10"/>
    <property name="hit" value="4"/>
    <property name="xadd" value="0"/>
    <property name="yadd" value="1"/>
   </properties>
  </object>
  <object id="1968" name="shellSWj" x="207" y="829" rotation="90">
   <properties>
    <property name="copy" value="5"/>
    <property name="gap" value="20"/>
    <property name="hit" value="4"/>
    <property name="xadd" value="0"/>
    <property name="yadd" value="1"/>
   </properties>
  </object>
  <object id="1969" name="shellSWj" x="40" y="1225" rotation="90">
   <properties>
    <property name="copy" value="1"/>
    <property name="gap" value="60"/>
    <property name="hit" value="4"/>
    <property name="xadd" value="0"/>
    <property name="yadd" value="1"/>
   </properties>
  </object>
  <object id="1970" name="shellSEj" x="200" y="1309" rotation="90">
   <properties>
    <property name="copy" value="1"/>
    <property name="gap" value="60"/>
    <property name="hit" value="4"/>
    <property name="xadd" value="0"/>
    <property name="yadd" value="1"/>
   </properties>
  </object>
  <object id="1971" name="krkNESSe" x="125" y="1326" rotation="90">
   <properties>
    <property name="copy" value="8"/>
    <property name="gap" value="11"/>
    <property name="hit" value="2"/>
    <property name="opaque" value=""/>
    <property name="xadd" value="0"/>
    <property name="yadd" value="0"/>
   </properties>
  </object>
  <object id="1972" name="krkNWSSe" x="191" y="1156" rotation="90">
   <properties>
    <property name="copy" value="8"/>
    <property name="gap" value="11"/>
    <property name="hit" value="2"/>
    <property name="opaque" value=""/>
    <property name="xadd" value="0"/>
    <property name="yadd" value="0"/>
   </properties>
  </object>
  <object id="1973" name="krkNESSe" x="174" y="567" rotation="90">
   <properties>
    <property name="copy" value="8"/>
    <property name="gap" value="11"/>
    <property name="hit" value="2"/>
    <property name="opaque" value=""/>
    <property name="xadd" value="0"/>
    <property name="yadd" value="0"/>
   </properties>
  </object>
  <object id="1974" name="krkNWSSe" x="82" y="567" rotation="90">
   <properties>
    <property name="copy" value="8"/>
    <property name="gap" value="11"/>
    <property name="hit" value="2"/>
    <property name="opaque" value=""/>
    <property name="xadd" value="0"/>
    <property name="yadd" value="0"/>
   </properties>
  </object>
  <object id="1975" name="mechMedC" x="-95" y="-598" rotation="90">
   <properties>
    <property name="hit" value="127"/>
    <property name="opaque" value=""/>
    <property name="xadd" value="0"/>
    <property name="yadd" value="0"/>
   </properties>
  </object>
  <object id="1976" name="krkSWARN" x="129" y="-1792" rotation="90">
   <properties>
    <property name="copy" value="0"/>
    <property name="gap" value="6"/>
    <property name="hit" value="1"/>
    <property name="opaque" value=""/>
    <property name="xadd" value="0"/>
    <property name="yadd" value="0"/>
   </properties>
  </object>
  <object id="1977" name="scrlBs1b" x="51" y="-598" rotation="90">
   <properties>
    <property name="hit" value="0"/>
    <property name="xadd" value="0"/>
    <property name="yadd" value="1"/>
   </properties>
  </object>
  <object id="1978" name="scrlBs1a" x="17" y="-598" rotation="90">
   <properties>
    <property name="hit" value="0"/>
    <property name="xadd" value="0"/>
    <property name="yadd" value="1"/>
   </properties>
  </object>
  <object id="1979" name="scrlBosA" x="39" y="-3362.14" rotation="90">
   <properties>
    <property name="hit" value="0"/>
    <property name="xadd" value="0"/>
    <property name="yadd" value="1"/>
   </properties>
  </object>
  <object id="1980" name="mechVinC" x="-76" y="-3352.18" rotation="90">
   <properties>
    <property name="hit" value="127"/>
    <property name="opaque" value=""/>
    <property name="xadd" value="0"/>
    <property name="yadd" value="0"/>
   </properties>
  </object>
  <object id="1981" name="tilterUL" x="0" y="428" rotation="90">
   <properties>
    <property name="hit" value="10"/>
    <property name="xadd" value="0"/>
    <property name="yadd" value="1"/>
   </properties>
  </object>
  <object id="1982" name="tilterUR" x="265" y="508" rotation="90">
   <properties>
    <property name="hit" value="10"/>
    <property name="xadd" value="0"/>
    <property name="yadd" value="1"/>
   </properties>
  </object>
  <object id="1983" name="doblClaw" x="584" y="166" rotation="90">
   <properties>
    <property name="hit" value="10"/>
    <property name="xadd" value="50"/>
    <property name="yadd" value="1"/>
   </properties>
  </object>
  <object id="1984" name="doblClaw" x="93" y="357" rotation="90">
   <properties>
    <property name="hit" value="10"/>
    <property name="xadd" value="50"/>
    <property name="yadd" value="1"/>
   </properties>
  </object>
  <object id="1985" name="spikrWEb" x="59" y="-1250" rotation="90">
   <properties>
    <property name="copy" value="15"/>
    <property name="gap" value="3"/>
    <property name="hit" value="0"/>
    <property name="link" value=""/>
    <property name="xadd" value="0"/>
    <property name="yadd" value="0"/>
   </properties>
  </object>
  <object id="1986" name="spikerWE" x="-7" y="-870" rotation="90">
   <properties>
    <property name="copy" value="15"/>
    <property name="gap" value="3"/>
    <property name="hit" value="0"/>
    <property name="link" value=""/>
    <property name="xadd" value="0"/>
    <property name="yadd" value="0"/>
   </properties>
  </object>
  <object id="1987" name="spikEWb2" x="266" y="-806" rotation="90">
   <properties>
    <property name="copy" value="15"/>
    <property name="gap" value="3"/>
    <property name="hit" value="0"/>
    <property name="link" value=""/>
    <property name="xadd" value="0"/>
    <property name="yadd" value="0"/>
   </properties>
  </object>
  <object id="1988" name="spikerEW" x="164" y="-1333" rotation="90">
   <properties>
    <property name="copy" value="15"/>
    <property name="gap" value="3"/>
    <property name="hit" value="0"/>
    <property name="link" value=""/>
    <property name="xadd" value="0"/>
    <property name="yadd" value="0"/>
   </properties>
  </object>
  <object id="1989" name="tentBase" x="205" y="363" rotation="90">
   <properties>
    <property name="hit" value="20"/>
    <property name="xadd" value="0"/>
    <property name="yadd" value="0"/>
   </properties>
  </object>
  <object id="1990" name="tentBase" x="174" y="-166" rotation="90">
   <properties>
    <property name="hit" value="20"/>
    <property name="xadd" value="0"/>
    <property name="yadd" value="0"/>
   </properties>
  </object>
  <object id="1991" name="tentBase" x="412" y="177" rotation="90">
   <properties>
    <property name="hit" value="20"/>
    <property name="xadd" value="0"/>
    <property name="yadd" value="0"/>
   </properties>
  </object>
  <object id="1992" name="tilterUL" x="19" y="-2117" rotation="90">
   <properties>
    <property name="hit" value="10"/>
    <property name="xadd" value="0"/>
    <property name="yadd" value="1"/>
   </properties>
  </object>
  <object id="1993" name="tilterUR" x="268" y="-1763" rotation="90">
   <properties>
    <property name="hit" value="10"/>
    <property name="xadd" value="0"/>
    <property name="yadd" value="1"/>
   </properties>
  </object>
  <object id="1994" name="tilterUL" x="25" y="-1832" rotation="90">
   <properties>
    <property name="hit" value="10"/>
    <property name="xadd" value="0"/>
    <property name="yadd" value="1"/>
   </properties>
  </object>
  <object id="1995" name="tilterUR" x="232" y="-1920" rotation="90">
   <properties>
    <property name="hit" value="10"/>
    <property name="xadd" value="0"/>
    <property name="yadd" value="1"/>
   </properties>
  </object>
  <object id="1996" name="tilterUL" x="56" y="-2016" rotation="90">
   <properties>
    <property name="hit" value="10"/>
    <property name="xadd" value="0"/>
    <property name="yadd" value="1"/>
   </properties>
  </object>
  <object id="1997" name="scrlBs1c" x="27" y="-736" rotation="90">
   <properties>
    <property name="hit" value="0"/>
    <property name="xadd" value="0"/>
    <property name="yadd" value="1"/>
   </properties>
  </object>
  <object id="1998" name="vfxBos1b" x="85" y="-736" rotation="90">
   <properties>
    <property name="hit" value="0"/>
    <property name="xadd" value="0"/>
    <property name="yadd" value="1"/>
   </properties>
  </object>
  <object id="1999" name="krakSbWx" x="126" y="-1888" rotation="90">
   <properties>
    <property name="copy" value="4"/>
    <property name="gap" value="14"/>
    <property name="hit" value="2"/>
    <property name="xadd" value="0"/>
    <property name="yadd" value="0"/>
   </properties>
  </object>
  <object id="2000" name="krakSbEx" x="126" y="-1893" rotation="90">
   <properties>
    <property name="copy" value="4"/>
    <property name="gap" value="14"/>
    <property name="hit" value="2"/>
    <property name="xadd" value="0"/>
    <property name="yadd" value="0"/>
   </properties>
  </object>
  <object id="2001" name="tricEas2" x="265" y="-1353" rotation="90">
   <properties>
    <property name="hit" value="0"/>
    <property name="xadd" value="0"/>
    <property name="yadd" value="1"/>
   </properties>
  </object>
  <object id="2002" name="tricWes2" x="-2" y="-1018" rotation="90">
   <properties>
    <property name="hit" value="0"/>
    <property name="xadd" value="0"/>
    <property name="yadd" value="1"/>
   </properties>
  </object>
  <object id="2003" name="doblClaw" x="-4" y="-2532" rotation="90">
   <properties>
    <property name="hit" value="10"/>
    <property name="xadd" value="50"/>
    <property name="yadd" value="1"/>
   </properties>
  </object>
  <object id="2004" name="doblClaw" x="103" y="-2440" rotation="90">
   <properties>
    <property name="hit" value="10"/>
    <property name="xadd" value="50"/>
    <property name="yadd" value="1"/>
   </properties>
  </object>
  <object id="2005" name="doblClaw" x="248" y="-2634" rotation="90">
   <properties>
    <property name="hit" value="10"/>
    <property name="xadd" value="50"/>
    <property name="yadd" value="1"/>
   </properties>
  </object>
  <object id="2006" name="doblClaw" x="245" y="-2310" rotation="90">
   <properties>
    <property name="hit" value="10"/>
    <property name="xadd" value="50"/>
    <property name="yadd" value="1"/>
   </properties>
  </object>
  <object id="2007" name="doblClaw" x="135" y="-2695" rotation="90">
   <properties>
    <property name="hit" value="10"/>
    <property name="xadd" value="50"/>
    <property name="yadd" value="1"/>
   </properties>
  </object>
  <object id="2008" name="doblClaw" x="152" y="-2579" rotation="90">
   <properties>
    <property name="hit" value="10"/>
    <property name="xadd" value="50"/>
    <property name="yadd" value="1"/>
   </properties>
  </object>
  <object id="2009" name="tilterUR" x="253" y="-2157" rotation="90">
   <properties>
    <property name="hit" value="10"/>
    <property name="xadd" value="0"/>
    <property name="yadd" value="1"/>
   </properties>
  </object>
  <object id="2010" name="tricWes2" x="-7" y="-1595" rotation="90">
   <properties>
    <property name="hit" value="0"/>
    <property name="xadd" value="0"/>
    <property name="yadd" value="1"/>
   </properties>
  </object>
  <object id="2011" name="tricWrnW" x="-3" y="-975" rotation="90">
   <properties>
    <property name="hit" value="0"/>
    <property name="xadd" value="0"/>
    <property name="yadd" value="1"/>
   </properties>
  </object>
  <object id="2012" name="tricWrnW" x="-14" y="-1542" rotation="90">
   <properties>
    <property name="hit" value="0"/>
    <property name="xadd" value="0"/>
    <property name="yadd" value="1"/>
   </properties>
  </object>
  <object id="2013" name="tricWrnE" x="264" y="-1290" rotation="90">
   <properties>
    <property name="hit" value="0"/>
    <property name="xadd" value="0"/>
    <property name="yadd" value="1"/>
   </properties>
  </object>
  <object id="2014" name="shellSEj" x="134" y="-2415" rotation="90">
   <properties>
    <property name="hit" value="4"/>
    <property name="xadd" value="0"/>
    <property name="yadd" value="1"/>
   </properties>
  </object>
  <object id="2015" name="shellSWj" x="92" y="-2627" rotation="90">
   <properties>
    <property name="copy" value="1"/>
    <property name="gap" value="60"/>
    <property name="hit" value="4"/>
    <property name="xadd" value="0"/>
    <property name="yadd" value="1"/>
   </properties>
  </object>
  <object id="2016" name="shellSEj" x="106" y="-2998" rotation="90">
   <properties>
    <property name="copy" value="1"/>
    <property name="gap" value="60"/>
    <property name="hit" value="4"/>
    <property name="xadd" value="0"/>
    <property name="yadd" value="1"/>
   </properties>
  </object>
  <object id="2017" name="shellSWj" x="196" y="-2967" rotation="90">
   <properties>
    <property name="copy" value="1"/>
    <property name="gap" value="60"/>
    <property name="hit" value="4"/>
    <property name="xadd" value="0"/>
    <property name="yadd" value="1"/>
   </properties>
  </object>
  <object id="2018" name="krkNWSSe" x="105" y="1339" rotation="90">
   <properties>
    <property name="copy" value="8"/>
    <property name="gap" value="11"/>
    <property name="hit" value="2"/>
    <property name="opaque" value=""/>
    <property name="xadd" value="0"/>
    <property name="yadd" value="0"/>
   </properties>
  </object>
  <object id="2019" name="krakSWNN" x="104" y="-2495" rotation="90">
   <properties>
    <property name="copy" value="8"/>
    <property name="gap" value="11"/>
    <property name="hit" value="2"/>
    <property name="opaque" value=""/>
    <property name="xadd" value="0"/>
    <property name="yadd" value="0"/>
   </properties>
  </object>
  <object id="2020" name="krkNWSSe" x="100" y="-3063" rotation="90">
   <properties>
    <property name="copy" value="8"/>
    <property name="gap" value="11"/>
    <property name="hit" value="2"/>
    <property name="opaque" value=""/>
    <property name="xadd" value="0"/>
    <property name="yadd" value="0"/>
   </properties>
  </object>
  <object id="2021" name="krkSWARN" x="73" y="-2377" rotation="90">
   <properties>
    <property name="copy" value="0"/>
    <property name="gap" value="6"/>
    <property name="hit" value="1"/>
    <property name="opaque" value=""/>
    <property name="xadd" value="0"/>
    <property name="yadd" value="0"/>
   </properties>
  </object>
  <object id="2022" name="krkSWARN" x="30" y="-3215" rotation="90">
   <properties>
    <property name="copy" value="0"/>
    <property name="gap" value="6"/>
    <property name="hit" value="1"/>
    <property name="opaque" value=""/>
    <property name="xadd" value="0"/>
    <property name="yadd" value="0"/>
   </properties>
  </object>
  <object id="2023" name="tilterUR" x="-1" y="712" rotation="90">
   <properties>
    <property name="hit" value="10"/>
    <property name="xadd" value="0"/>
    <property name="yadd" value="1"/>
   </properties>
  </object>
  <object id="2024" name="spikerEW" x="207" y="-3937" rotation="90">
   <properties>
    <property name="copy" value="15"/>
    <property name="gap" value="3"/>
    <property name="hit" value="0"/>
    <property name="link" value=""/>
    <property name="xadd" value="0"/>
    <property name="yadd" value="0"/>
   </properties>
  </object>
  <object id="2025" name="spikerWE" x="11" y="-3823" rotation="90">
   <properties>
    <property name="copy" value="15"/>
    <property name="gap" value="3"/>
    <property name="hit" value="0"/>
    <property name="link" value=""/>
    <property name="xadd" value="0"/>
    <property name="yadd" value="0"/>
   </properties>
  </object>
  <object id="2026" name="clrTrigs" x="-16" y="-4290" rotation="90">
   <properties>
    <property name="copy" value="0"/>
    <property name="gap" value="60"/>
    <property name="hit" value="5"/>
    <property name="xadd" value="0"/>
    <property name="yadd" value="0"/>
   </properties>
  </object>
  <object id="2027" name="tricWest" x="-3" y="-223" rotation="90">
   <properties>
    <property name="hit" value="0"/>
    <property name="xadd" value="0"/>
    <property name="yadd" value="1"/>
   </properties>
  </object>
  <object id="2028" name="tricWrnW" x="-4" y="-188" rotation="90">
   <properties>
    <property name="hit" value="0"/>
    <property name="xadd" value="0"/>
    <property name="yadd" value="1"/>
   </properties>
  </object>
  <object id="2029" name="tricEast" x="550" y="55" rotation="90">
   <properties>
    <property name="hit" value="0"/>
    <property name="xadd" value="0"/>
    <property name="yadd" value="1"/>
   </properties>
  </object>
  <object id="2030" name="tricWrnE" x="513" y="248" rotation="90">
   <properties>
    <property name="hit" value="0"/>
    <property name="xadd" value="0"/>
    <property name="yadd" value="1"/>
   </properties>
  </object>
  <object id="2031" name="crabAtak" x="234" y="-2103" rotation="90">
   <properties>
    <property name="hit" value="18"/>
   </properties>
  </object>
  <object id="2032" name="tileAniA" x="170" y="-2923" rotation="90">
   <properties>
    <property name="hit" value="-1"/>
   </properties>
  </object>
  <object id="2033" name="tileAniA" x="203" y="-1045" rotation="90">
   <properties>
    <property name="hit" value="-1"/>
   </properties>
  </object>
  <object id="2034" name="tileAniA" x="230" y="1680" rotation="90">
   <properties>
    <property name="hit" value="-1"/>
   </properties>
  </object>
  <object id="2035" name="tileAniA" x="187" y="876" rotation="90">
   <properties>
    <property name="hit" value="-1"/>
   </properties>
  </object>
  <object id="2036" name="tileAniA" x="104" y="811" rotation="90">
   <properties>
    <property name="hit" value="-1"/>
   </properties>
  </object>
  <object id="2037" name="doblClaw" x="279" y="104" rotation="90">
   <properties>
    <property name="hit" value="10"/>
    <property name="xadd" value="50"/>
    <property name="yadd" value="1"/>
   </properties>
  </object>
  <object id="2038" name="doblClaw" x="141" y="-2811" rotation="90">
   <properties>
    <property name="hit" value="10"/>
    <property name="xadd" value="50"/>
    <property name="yadd" value="1"/>
   </properties>
  </object>
  <object id="2039" name="shellSEj" x="170" y="-2760" rotation="90">
   <properties>
    <property name="hit" value="4"/>
    <property name="xadd" value="0"/>
    <property name="yadd" value="1"/>
   </properties>
  </object>
  <object id="2040" name="doblClaw" x="84" y="-2922" rotation="90">
   <properties>
    <property name="hit" value="10"/>
    <property name="xadd" value="50"/>
    <property name="yadd" value="1"/>
   </properties>
  </object>
  <object id="2041" name="doblClaw" x="259" y="-3022" rotation="90">
   <properties>
    <property name="hit" value="10"/>
    <property name="xadd" value="50"/>
    <property name="yadd" value="1"/>
   </properties>
  </object>
  <object id="2042" name="spedUpgr" x="163" y="1901" rotation="90">
   <properties>
    <property name="hit" value="-1"/>
    <property name="xadd" value="0"/>
    <property name="yadd" value="0"/>
   </properties>
  </object>
  <object id="2043" name="crabAtak" x="74" y="-3688" rotation="90">
   <properties>
    <property name="hit" value="18"/>
   </properties>
  </object>
  <object id="2044" name="crabAtak" x="70" y="971" rotation="90">
   <properties>
    <property name="hit" value="18"/>
   </properties>
  </object>
  <object id="2045" name="tileAniA" x="20" y="971" rotation="90">
   <properties>
    <property name="hit" value="-1"/>
   </properties>
  </object>
  <object id="2046" name="tileAniA" x="181" y="747" rotation="90">
   <properties>
    <property name="hit" value="-1"/>
   </properties>
  </object>
  <object id="2047" name="tileAniA" x="38" y="269" rotation="90">
   <properties>
    <property name="hit" value="-1"/>
   </properties>
  </object>
  <object id="2048" name="tilterUL" x="32" y="2539" rotation="90">
   <properties>
    <property name="hit" value="10"/>
    <property name="xadd" value="0"/>
    <property name="yadd" value="1"/>
   </properties>
  </object>
  <object id="2049" name="tilterUR" x="255" y="2087" rotation="90">
   <properties>
    <property name="hit" value="10"/>
    <property name="xadd" value="0"/>
    <property name="yadd" value="1"/>
   </properties>
  </object>
  <object id="2050" name="shellSEj" x="200" y="-1560" rotation="90">
   <properties>
    <property name="hit" value="4"/>
    <property name="xadd" value="0"/>
    <property name="yadd" value="1"/>
   </properties>
  </object>
  <object id="2051" name="shellSEj" x="149" y="-1009" rotation="90">
   <properties>
    <property name="hit" value="4"/>
    <property name="xadd" value="0"/>
    <property name="yadd" value="1"/>
   </properties>
  </object>
  <object id="2052" name="doblClaw" x="100" y="-1478" rotation="90">
   <properties>
    <property name="hit" value="10"/>
    <property name="xadd" value="50"/>
    <property name="yadd" value="1"/>
   </properties>
  </object>
  <object id="2053" name="doblClaw" x="82" y="-1144" rotation="90">
   <properties>
    <property name="hit" value="10"/>
    <property name="xadd" value="50"/>
    <property name="yadd" value="1"/>
   </properties>
  </object>
  <object id="2054" name="weapUpgr" x="123" y="-3924" rotation="90">
   <properties>
    <property name="hit" value="-1"/>
    <property name="xadd" value="0"/>
    <property name="yadd" value="0"/>
   </properties>
  </object>
  <object id="2055" name="spedUpgr" x="133" y="-3872" rotation="90">
   <properties>
    <property name="hit" value="-1"/>
    <property name="xadd" value="0"/>
    <property name="yadd" value="0"/>
   </properties>
  </object>
  <object id="2056" name="weapUpgr" x="132" y="-4035" rotation="90">
   <properties>
    <property name="hit" value="-1"/>
    <property name="xadd" value="0"/>
    <property name="yadd" value="0"/>
   </properties>
  </object>
  <object id="2057" name="spedUpgr" x="88" y="-4074" rotation="90">
   <properties>
    <property name="hit" value="-1"/>
    <property name="xadd" value="0"/>
    <property name="yadd" value="0"/>
   </properties>
  </object>
  <object id="2058" name="spedUpgr" x="181" y="-4063" rotation="90">
   <properties>
    <property name="hit" value="-1"/>
    <property name="xadd" value="0"/>
    <property name="yadd" value="0"/>
   </properties>
  </object>
  <object id="2059" name="spedUpgr" x="66" y="-4466" rotation="90">
   <properties>
    <property name="hit" value="-1"/>
    <property name="xadd" value="0"/>
    <property name="yadd" value="0"/>
   </properties>
  </object>
  <object id="2060" name="tileAniA" x="243" y="-3693" rotation="90">
   <properties>
    <property name="hit" value="-1"/>
   </properties>
  </object>
  <object id="2061" name="doblClaw" x="242" y="-2908" rotation="90">
   <properties>
    <property name="hit" value="10"/>
    <property name="xadd" value="50"/>
    <property name="yadd" value="1"/>
   </properties>
  </object>
  <object id="2062" name="spedUpgr" x="148" y="-306" rotation="90">
   <properties>
    <property name="hit" value="-1"/>
    <property name="xadd" value="0"/>
    <property name="yadd" value="1"/>
   </properties>
  </object>
  <object id="2063" name="weapUpgr" x="121" y="-389" rotation="90">
   <properties>
    <property name="hit" value="-1"/>
    <property name="xadd" value="0"/>
    <property name="yadd" value="1"/>
   </properties>
  </object>
  <object id="2064" name="spedUpgr" x="187" y="-3077" rotation="90">
   <properties>
    <property name="hit" value="-1"/>
    <property name="xadd" value="0"/>
    <property name="yadd" value="1"/>
   </properties>
  </object>
  <object id="2065" name="weapUpgr" x="56" y="-3037" rotation="90">
   <properties>
    <property name="hit" value="-1"/>
    <property name="xadd" value="0"/>
    <property name="yadd" value="1"/>
   </properties>
  </object>
  <object id="2066" name="weapUpgr" x="86" y="2204" rotation="90">
   <properties>
    <property name="hit" value="-1"/>
    <property name="xadd" value="0"/>
    <property name="yadd" value="0"/>
   </properties>
  </object>
  <object id="2067" name="shellSEj" x="172" y="-3414" rotation="90">
   <properties>
    <property name="hit" value="4"/>
    <property name="xadd" value="0"/>
    <property name="yadd" value="1"/>
   </properties>
  </object>
  <object id="2068" name="tentBase" x="82" y="3214" rotation="90">
   <properties>
    <property name="hit" value="10"/>
    <property name="xadd" value="0"/>
    <property name="yadd" value="0"/>
   </properties>
  </object>
  <object id="2069" name="shellSEj" x="208" y="3276" rotation="90">
   <properties>
    <property name="hit" value="4"/>
    <property name="xadd" value="0"/>
    <property name="yadd" value="1"/>
   </properties>
  </object>
  <object id="2070" name="spedUpgr" x="145" y="-813" rotation="90">
   <properties>
    <property name="hit" value="-1"/>
    <property name="xadd" value="0"/>
    <property name="yadd" value="1"/>
   </properties>
  </object>
  <object id="2071" name="shellSEj" x="176" y="-3630" rotation="90">
   <properties>
    <property name="hit" value="4"/>
    <property name="xadd" value="0"/>
    <property name="yadd" value="1"/>
   </properties>
  </object>
  <object id="2072" name="spedUpgr" x="167" y="5230" rotation="90">
   <properties>
    <property name="hit" value="-1"/>
    <property name="xadd" value="0"/>
    <property name="yadd" value="1"/>
   </properties>
  </object>
 </objectgroup>
</map>
